!!!!SEGMENT: pl-kk--kk-i-338--001_gorczycki-grzegorz-gerwazy--deus-tuorum-militum.krn
!!!cenid: 17xx:1938
!!!COM: Gorczycki, Grzegorz Gerwazy
!!!COM-rismID: pe30009207
!!!CDT: ~1666-1734/04/30
!!!CNT: Polish
!!!OTL: Deus tuorum militum
!!!PDT:
!!!AGN: Sacred
!!!SMS-siglum: PL-Kk
!!!SMS-shelfmark: Kk.I.338
!!!SMS-shelfwork: 001 W
!!!SMS-variant:
!!!SMS-altvar:
!!!NIFC-rismSourceID: 1001143666
!!!NIFC-islandoraID: pl-kk:5647
!!!URL-pdf-islandora: https://repozytorium.nifc.pl/islandora/object/pl-kk%3A5647/datastream/PDF/view
!!!URL-scan: https://polish.musicsources.pl/pl/lokalizacje/galeria/rekopisy/5955 @EN{Scan on Polish Music Herritage in Open Access Website} @PL{Skany w portalu Dziedzictwo Muzyki Polskiej w otwartym dostępie}
!!!ONB-nifc: UWAGA: utwory w zbiorze: 1. Deus tuorum militum, 2. Rex gloriose martyrum, 3. Invicte Martyr unicum, 4. Tristes erant apostoli
!!!AIN: 1 alto 1 bass 1 empty 1 soprn 1 tenor
!!!key: G:mix
**kern	**text	**text	**mod-text	**dynam	**kern	**text	**mod-text	**dynam	**kern	**text	**mod-text	**dynam	**kern	**text	**mod-text	**dynam	**kern	**text	**mod-text	**dynam
*part5	*part5	*part5	*	*part5	*part4	*part4	*part4	*part4	*part3	*part3	*part3	*part3	*part2	*part2	*part2	*part2	*part1	*part1	*part1	*part1
*group2	*group2	*group2	*	*	*group1	*group1	*group1	*	*group1	*group1	*group1	*	*group1	*group1	*group1	*	*group1	*group1	*group1	*
*staff5	*staff5	*staff5	*	*	*staff4	*staff4	*staff4	*	*staff3	*staff3	*staff3	*	*staff2	*staff2	*staff2	*	*staff1	*staff1	*staff1	*
*I"Baſso Ripieno.	*	*	*	*	*I"Baſso.	*	*	*	*I"Tenore	*	*	*	*I"Alto.	*	*	*	*I"Canto.	*	*	*
*mI"Basso ripieno	*	*	*	*	*mI"Basso	*	*	*	*	*	*	*	*mI"Alto	*	*	*	*mI"Soprano	*	*	*
*I'B rip	*	*	*	*	*I'B	*	*	*	*I'T	*	*	*	*I'A	*	*	*	*I'S	*	*	*
*Iempty	*	*	*	*	*Ibass	*	*	*	*Itenor	*	*	*	*Ialto	*	*	*	*Isoprn	*	*	*
*	*	*	*	*	*ICvox	*	*	*	*ICvox	*	*	*	*	*	*	*	*ICvox	*	*	*
*clefF4	*	*	*	*	*clefF4	*	*	*	*clefC4	*	*	*	*clefC3	*	*	*	*clefC1	*	*	*
*	*	*	*	*	*	*	*	*	*mclefGv2	*	*	*	*mclefG2	*	*	*	*mclefG2	*	*	*
*k[]	*	*	*	*	*k[]	*	*	*	*k[]	*	*	*	*k[]	*	*	*	*k[]	*	*	*
*G:mix	*	*	*	*	*G:mix	*	*	*	*G:mix	*	*	*	*G:mix	*	*	*	*G:mix	*	*	*
*M3/2	*	*	*	*	*M3/2	*	*	*	*M3/2	*	*	*	*M3/2	*	*	*	*M3/2	*	*	*
=1	=1	=1	=1	=1	=1	=1	=1	=1	=1	=1	=1	=1	=1	=1	=1	=1	=1	=1	=1	=1
!LO:MO:mod=*null:null	!	!	!	!	!LO:MO:mod=*null:null	!	!	!	!LO:MO:mod=*null:null	!	!	!	!LO:MO:mod=*null:null	!	!	!	!LO:MO:mod=*null:null	!	!	!
*2\right	*	*	*	*	*2\right	*	*	*	*2\right	*	*	*	*2\right	*	*	*	*2\right	*	*	*
!!LO:TX:a:t= :mod=Tutti
!!LO:MO:ori
!!LO:TX:a:t=P:problem:oddech/cezura na różnej wysokości
!!LO:MO:end
!LO:TX:a:t=Tutti.:mod=	!	!	!	!	!	!	!	!	!	!	!	!	!	!	!	!	!LO:TX:a:t=Tutti.:mod=	!	!	!
!	!	!	!	!	!	!	!	!	!	!	!	!	!	!	!	!	!LO:SIC:s=2cc\	!	!	!
2A\	DE-	3 Poe-	.	.	2A\	DE-	De-	.	2A/	DE-	De-	.	2e\	DE-	De-	.	2ccn\	DE-	De-	.
2A\,<	-us	-nas	.	.	2A\	-US	-us	.	2A/	-US	-us	.	2e\,<	-US	-us	.	2cc\,<	-US	-us	.
!LO:SIC:s=2B\	!	!	!	!	!LO:SIC:s=2B\	!	!	!	!	!	!	!	!	!	!	!	!	!	!	!
2Bn\	Tu-	cu-	.	.	2Bn\	tu-	tu-	.	2G#X/	tu-	tu-	.	2d\	tu-	tu-	.	2dd\	Tu-	tu-	.
=2	=2	=2	=2	=2	=2	=2	=2	=2	=2	=2	=2	=2	=2	=2	=2	=2	=2	=2	=2	=2
(2.c\	-o-	-cur-	.	.	(2.c\	-o-	-o-	.	(2.A\	-o-	-o-	.	(2.e\	-o-	-o-	.	(2.cc\	-o-	-o-	.
4B\	.	.	.	.	4B\)	.	.	.	4B\)	.	.	.	4d\)	.	.	.	4dd\)	.	.	.
2A\)	-rum	-rit	.	.	2A\	-rum	-rum,	.	2c\	-rum	-rum,	.	2c/,<	-rum	-rum,	.	2ee\	-rum	-rum,	.
=3	=3	=3	=3	=3	=3	=3	=3	=3	=3	=3	=3	=3	=3	=3	=3	=3	=3	=3	=3	=3
!	!	!	!	!	!	!	!	!	!	!	!	!	!	!	!	!	!LO:SIC:s=2b\	!	!	!
2G#X\	Tu-	cu-	.	.	2G#X\	tu-	tu-	.	2d\	tu-	tu-	.	2e\	tu-	tu-	.	2bni\	Tu-	tu-	.
2G#\	-o-	-cur-	.	.	2G#\	-o-	-o-	.	2d\	-o-	-o-	.	2e\	-o-	-o-	.	2b\	-o-	-o-	.
2A\,<	-rum	-rit	.	.	2A\	-rum	-rum	.	2c\	-rum	-rum	.	2e\	-rum	-rum	.	2cc\	-rum	-rum	.
=4	=4	=4	=4	=4	=4	=4	=4	=4	=4	=4	=4	=4	=4	=4	=4	=4	=4	=4	=4	=4
!	!	!	!	!	!	!	!	!	!LO:SIC:s=(2A\	!	!	!	!	!	!	!	!	!	!	!
(2.F\	mi-	for-	.	.	(2.F\	Mi-	mi-	.	2A\	Mi-	mi-	.	(2.f\	Mi-	mi-	.	(2.dd\	Mi-	mi-	.
!	!	!	!	!	!	!	!	!	!LO:SIC:s=4B\	!	!	!	!	!	!	!	!	!	!	!
.	.	.	.	.	.	.	.	.	(4B\	.	.	.	.	.	.	.	.	.	.	.
!	!	!	!	!	!	!	!	!	!LO:SIC:s=4c\	!	!	!	!LO:SIC:s=4g\	!	!	!	!LO:SIC:s=4ee\	!	!	!
4E\	.	.	.	.	4E\	.	.	.	4c\)	.	.	.	4g\)	.	.	.	4ee\)	.	.	.
!	!	!	!	!	!LO:SIC:s=2D/	!	!	!	!LO:SIC:s=4d\	!	!	!	!	!	!	!	!	!	!	!
2D\)	.	.	.	.	2D/)	.	.	.	(4d\	.	.	.	2a\	.	.	.	2ff\	.	.	.
!	!	!	!	!	!	!	!	!	!LO:SIC:s=4A\	!	!	!	!	!	!	!	!	!	!	!
.	.	.	.	.	.	.	.	.	4A\)	.	.	.	.	.	.	.	.	.	.	.
=5	=5	=5	=5	=5	=5	=5	=5	=5	=5	=5	=5	=5	=5	=5	=5	=5	=5	=5	=5	=5
!	!	!	!	!	!LO:SIC:s=2.E\)	!	!	!	!LO:SIC:s=2.G#X/)	!	!	!	!LO:SIC:s=2.e\)	!	!	!	!LO:SIC:s=2.b\)	!	!	!
2.E\	.	.	.	.	2.E\	.	.	.	2.G#X/	.	.	.	2.e\	.	.	.	2.bn\	.	.	.
4E\	-li-	-ti-	.	.	4E\	-li-	-li-	.	4G#/	-li-	-li-	.	4e\	-li-	-li-	.	4b\	-li-	-li-	.
2E\,<	-tum	-ter.	.	.	2E\	-tum	-tum	.	2G#/,<	-tum	-tum	.	2e\	-tum	-tum	.	2b\	-tum	-tum	.
!LO:MO:mod==6	!LO:MO:mod==6	!LO:MO:mod==6	!	!LO:MO:mod==6	!LO:MO:mod==6	!LO:MO:mod==6	!LO:MO:mod==6	!LO:MO:mod==6	!	!	!	!	!	!	!	!	!	!	!	!
=6||	=6||	=6||	=6||	=6||	=6||	=6||	=6||	=6||	=6	=6	=6	=6	=6	=6	=6	=6	=6	=6	=6	=6
!	!	!	!	!	!	!	!	!	!	!	!	!LO:MO:null:mod=!LO&colon;DY&colon;ed=brack	!	!	!	!	!	!	!	!
!	!	!	!	!	!	!	!	!	!	!	!	!	!	!	!	!	!	!	!	!
!LO:SIC:s=2C/	!	!	!	!LO:DY:a	!	!	!	!LO:DY:a	!	!	!	!LO:MO:null:mod=f	!LO:N:vis=0	!	!	!	!	!	!	!
2Cn/	Sors	et	.	f	2C/	Sors	Sors	f	2E/	Sors	Sors	.	0.r	.	.	.	1.r	.	.	.
2E\	et	suſ-	.	.	2E\	et	et	.	2Gn/	et	et	.	.	.	.	.	.	.	.	.
!	!	!	!	!	!	!	!	!	!LO:SIC:s=(4G/	!	!	!	!	!	!	!	!	!	!	!
2C/	co-	-tu-	.	.	2C/	Co-	co-	.	4G/	Co-	co-	.	.	.	.	.	.	.	.	.
!	!	!	!	!	!	!	!	!	!LO:SIC:s=4A/)	!	!	!	!	!	!	!	!	!	!	!
.	.	.	.	.	.	.	.	.	4A/	.	.	.	.	.	.	.	.	.	.	.
=7	=7	=7	=7	=7	=7	=7	=7	=7	=7	=7	=7	=7	=7	=7	=7	=7	=7	=7	=7	=7
!	!	!	!	!	!	!	!	!	!LO:SIC:s=(4B\	!	!	!	!	!	!	!	!	!	!	!LO:DY:a
(4G\	-ro-	-lit	.	.	(4G\	-ro-	-ro-	.	(4Bn\	-ro-	-ro-	.	.	.	.	.	2g/,<	Sors	Sors	f
4F\	.	.	.	.	4F\	.	.	.	4A\	.	.	.	.	.	.	.	.	.	.	.
4G\	.	.	.	.	4G\	.	.	.	4B\	.	.	.	.	.	.	.	2b\	et	et	.
!	!	!	!	!	!LO:SIC:s=4A\	!	!	!	!LO:SIC:s=4c\	!	!	!	!	!	!	!	!	!	!	!
4A\)	.	.	.	.	4A\)	.	.	.	4c\)	.	.	.	.	.	.	.	.	.	.	.
4G\	.	vi-	.	.	4G\	.	.	.	4B\	.	.	.	.	.	.	.	2g/	Co-	co-	.
4F\	.	.	.	.	4F\	.	.	.	4A\	.	.	.	.	.	.	.	.	.	.	.
=8	=8	=8	=8	=8	=8	=8	=8	=8	=8	=8	=8	=8	=8	=8	=8	=8	=8	=8	=8	=8
!	!	!	!	!	!LO:SIC:s=2E\)	!	!	!	!LO:SIC:s=2G/)	!	!	!	!LO:SIC:s=2c/	!	!	!LO:DY:a	!	!	!	!
2E\	.	-ri-	.	.	2E\	.	.	.	2Gn/	.	.	.	2cn/	Sors	Sors	f	(4cc\	-ro-	-ro-	.
.	.	.	.	.	.	.	.	.	.	.	.	.	.	.	.	.	4b\	.	.	.
2E\,<	-na	-li-	.	.	2E\,<	-na	-na	.	2G/,<	-na	-na,	.	2e\	et	et	.	4cc\	.	.	.
!	!	!	!	!	!	!	!	!	!	!	!	!	!	!	!	!	!LO:SIC:s=4dd\	!	!	!
.	.	.	.	.	.	.	.	.	.	.	.	.	.	.	.	.	4dd\)	.	.	.
2E\	co-	-ter	.	.	2E\	Co-	co-	.	2G/	Co-	co-	.	2c/	co-	co-	.	4cc\	.	.	.
.	.	.	.	.	.	.	.	.	.	.	.	.	.	.	.	.	4b\	.	.	.
=9	=9	=9	=9	=9	=9	=9	=9	=9	=9	=9	=9	=9	=9	=9	=9	=9	=9	=9	=9	=9
!	!	!	!	!	!	!	!	!	!LO:SIC:s=(4A/	!	!	!	!LO:SIC:s=1f\	!	!	!	!LO:SIC:s=2a\)	!	!	!
4F\	-ro-	vi-	.	.	(4F\	-ro-	-ro-	.	4A/	-ro-	-ro-	.	1fn\	-ro-	-ro-	.	2a\	.	.	.
4E\	.	.	.	.	4E\	.	.	.	4G/	.	.	.	.	.	.	.	.	.	.	.
!	!	!	!	!	!	!	!	!	!LO:SIC:s=4A/	!	!	!	!	!	!	!	!	!	!	!
4F\	.	.	.	.	4F\	.	.	.	(4A/	.	.	.	.	.	.	.	2a\,<	-na	-na,	.
!	!	!	!	!	!LO:SIC:s=4G\	!	!	!	!	!	!	!	!	!	!	!	!	!	!	!
4G\	.	.	.	.	4G\)	.	.	.	4B/	.	.	.	.	.	.	.	.	.	.	.
4F\	.	.	.	.	4F\	.	.	.	4A/	.	.	.	2f\	-na	-na,	.	2cc\	Co-	co-	.
!	!	!	!	!	!	!	!	!	!LO:SIC:s=4G/	!	!	!	!	!	!	!	!	!	!	!
4E\	.	.	.	.	4E\	.	.	.	4G/)	.	.	.	.	.	.	.	.	.	.	.
*	*	*	*	*	*	*	*	*	*custos:A	*	*	*	*	*	*	*	*custos:cc	*	*	*
!LO:LB:g=original	!	!	!	!	!LO:LB:g=original	!	!	!	!LO:LB:g=original	!	!	!	!	!	!	!	!LO:LB:g=original	!	!	!
=10	=10	=10	=10	=10	=10	=10	=10	=10	=10	=10	=10	=10	=10	=10	=10	=10	=10	=10	=10	=10
*	*	*	*	*	*	*	*	*	*	*	*	*	*	*ij	*ij	*	*	*	*	*
!	!	!	!	!	!LO:SIC:s=2D\)	!	!	!	!LO:SIC:s=2A/)	!	!	!	!	!	!	!	!	!	!	!
2D/	.	-ri-	.	.	2D\	.	.	.	2A/	.	.	.	2f#X\	Sors	Sors	.	2cc\	-ro-	-ro-	.
2D/,<	-na	-li-	.	.	2D\,<	-na	-na,	.	2A/,<	-na	-na,	.	2f#\	et	et	.	2cc\,<	-na	-na,	.
*	*	*	*	*	*	*ij	*ij	*	*	*	*	*	*	*	*	*	*	*ij	*ij	*
!	!	!	!	!	!	!	!	!	!LO:SIC:s=2G/	!	!	!	!	!	!	!	!	!	!	!
2G\	Co-	-ter	.	.	2G\	Co-	co-	.	2Gn/	Co-	co-	.	2g\	co-	co-	.	2b\	Co-	co-	.
=11	=11	=11	=11	=11	=11	=11	=11	=11	=11	=11	=11	=11	=11	=11	=11	=11	=11	=11	=11	=11
2E\	-ro-	et	.	.	2E\	-ro-	-ro-	.	2G/	-ro-	-ro-	.	2g\	-ro-	-ro-	.	2cc\	-ro-	-ro-	.
2C/,<	-na	.	.	.	2C/,<	-na	-na,	.	2G/,<	-na	-na,	.	2e\,<	-na	-na,	.	2cc\,<	-na	-na,	.
*	*	*	*	*	*	*Xij	*Xij	*	*	*	*	*	*	*Xij	*Xij	*	*	*Xij	*Xij	*
2c\	Sors	su-	.	.	2c\	Sors	Sors	.	2A/	Co-	co-	.	2e\	Co-	co-	.	2cc\	Sors	Sors	.
!	!	!	!	!	!	!	!	!	!	!	!	!	!LO:LB:g=original	!	!	!	!	!	!	!
=12	=12	=12	=12	=12	=12	=12	=12	=12	=12	=12	=12	=12	=12	=12	=12	=12	=12	=12	=12	=12
!LO:SIC:s=1B\	!	!	!	!	!LO:SIC:s=1B\	!	!	!	!	!	!	!	!	!	!	!	!	!	!	!
1Bn\	et	-stu-	.	.	1BnX\	et	et	.	(1G#X	-ro-	-ro-	.	1d\	-ro-	-ro-	.	1dd\	et	et	.
!	!	!	!	!	!	!	!	!	!LO:SIC:s=2A/	!	!	!	!	!	!	!	!	!	!	!
2A\	Co-	-lit	.	.	2A\	Co-	co-	.	2A/)	.	.	.	2e\,<	-na	-na,	.	2cc\	Co-	co-	.
=13	=13	=13	=13	=13	=13	=13	=13	=13	=13	=13	=13	=13	=13	=13	=13	=13	=13	=13	=13	=13
!	!	!	!	!	!	!	!	!	!LO:SIC:s=2G#X/)	!	!	!	!LO:SIC:s=2e\	!	!	!	!LO:SIC:s=2b\	!	!	!
2E\	-ro-	suſ-	.	.	2E\	-ro-	-ro-	.	2G#X/	-na	.	.	2e\,<	Sors	Sors	.	2bn\	-ro-	-ro-	.
2E\,<	-na	-tu-	.	.	2E\,<	-na	-na,	.	2G#/,<	.	-na,	.	2e\	et	et	.	2b\,<	-na	-na,	.
*	*ij	*	*	*	*	*ij	*ij	*	*	*	*	*	*	*	*	*	*	*	*	*
2A\	Co-	-lit	.	.	2A\	Co-	co-	.	2A/	Co-	co-	.	2e\	co-	co-	.	2cc\	Co-	co-	.
=14	=14	=14	=14	=14	=14	=14	=14	=14	=14	=14	=14	=14	=14	=14	=14	=14	=14	=14	=14	=14
!	!	!	!	!	!	!	!	!	!	!	!	!	!LO:SIC:s=(2.f\	!	!	!	!LO:SIC:s=(2a\	!	!	!
(2.F\	-ro-	vi-	.	.	(2.F\	-ro-	-ro-	.	(2.A/	-ro-	-ro-	.	(2.fn\	-ro-	-ro-	.	2a\	-ro-	-ro-	.
!	!	!	!	!	!	!	!	!	!	!	!	!	!	!	!	!	!LO:SIC:s=4b\	!	!	!
.	.	.	.	.	.	.	.	.	.	.	.	.	.	.	.	.	(4b\	.	.	.
4E\)	.	.	.	.	4E\)	.	.	.	4G/)	.	.	.	4g\)	.	.	.	4cc\)	.	.	.
2D\	-na	.	.	.	2D/	-na	-na,	.	2F/	-na	-na,	.	2a\	-na	-na,	.	(4dd\	-na	-na,	.
*	*Xij	*	*	*	*	*Xij	*Xij	*	*	*	*	*	*	*	*	*	*	*	*	*
.	.	.	.	.	.	.	.	.	.	.	.	.	.	.	.	.	4cc\)	.	.	.
=15	=15	=15	=15	=15	=15	=15	=15	=15	=15	=15	=15	=15	=15	=15	=15	=15	=15	=15	=15	=15
2.E\	prae-	-ri-	.	.	2.E\	prae-	prae-	.	2.G#X/	Prae-	prae-	.	2.e\	prae-	prae-	.	2.b\	prae-	prae-	.
4E\	-mi-	-li-	.	.	4E\	-mi-	-mi-	.	4G#/	-mi-	-mi-	.	4e\	-mi-	-mi-	.	4b\	-mi-	-mi-	.
2AA/	-um	-ter.	.	.	2AA/	-um	-um:	.	2A\	-um	-um:	.	2e\	-um	-um:	.	2cc\,<	-um	-um:	.
!	!	!	!	!	!	!	!	!	!	!	!	!	!LO:MO:mod==16||	!LO:MO:mod==16||	!LO:MO:mod==16||	!LO:MO:mod==16||	!	!	!	!
=16||	=16||	=16||	=16||	=16||	=16||	=16||	=16||	=16||	=16||	=16||	=16||	=16||	=16	=16	=16	=16	=16||	=16||	=16||	=16||
!LO:N:vis=00	!	!	!	!	!LO:N:vis=00	!	!	!	!	!	!	!LO:DY:a:t=For:mod=	!	!	!	!	!	!	!	!
00.r	.	.	.	.	00.r	.	.	.	2A\	Lau-	Lau-	f	1.r	.	.	.	2cc\	Lau-	Lau-	.
!	!	!	!	!	!	!	!	!	!LO:SIC:s=2c\	!	!	!	!	!	!	!	!	!	!	!
.	.	.	.	.	.	.	.	.	2cn\	-des	-des	.	.	.	.	.	2ee\	-des	-des	.
.	.	.	.	.	.	.	.	.	2A\	ca-	ca-	.	.	.	.	.	2cc\	ca-	ca-	.
=17	=17	=17	=17	=17	=17	=17	=17	=17	=17	=17	=17	=17	=17	=17	=17	=17	=17	=17	=17	=17
!	!	!	!	!	!	!	!	!	!	!	!	!	!	!	!	!	!LO:SIC:s=(1b\	!	!	!
.	.	.	.	.	.	.	.	.	(4e\	-nen-	-nen-	.	2e\	Lau-	Lau-	.	1b\	-n[en]-	-n[en]-	.
.	.	.	.	.	.	.	.	.	4d\	.	.	.	.	.	.	.	.	.	.	.
.	.	.	.	.	.	.	.	.	4e\	.	.	.	2g#X\	-des	-des	.	.	.	.	.
!	!	!	!	!	!	!	!	!	!LO:SIC:s=4f\	!	!	!	!	!	!	!	!	!	!	!
.	.	.	.	.	.	.	.	.	4f\)	.	.	.	.	.	.	.	.	.	.	.
!	!	!	!	!	!	!	!	!	!	!	!	!	!	!	!	!	!LO:SIC:s=4cc\	!	!	!
.	.	.	.	.	.	.	.	.	4e\	.	.	.	2e\	ca-	ca-	.	(4cc\	.	.	.
.	.	.	.	.	.	.	.	.	4d\	.	.	.	.	.	.	.	4dd\)	.	.	.
=18	=18	=18	=18	=18	=18	=18	=18	=18	=18	=18	=18	=18	=18	=18	=18	=18	=18	=18	=18	=18
.	.	.	.	.	.	.	.	.	2.c\	.	.	.	2a\	-nen-	.	.	2.ee\	-tes	-tes,	.
.	.	.	.	.	.	.	.	.	.	.	.	.	(4e\	.	-nen-	.	.	.	.	.
!	!	!	!	!	!	!	!	!	!LO:SIC:s=4B\)	!	!	!	!	!	!	!	!	!	!	!
.	.	.	.	.	.	.	.	.	4B\	.	.	.	4d\)	.	.	.	(4dd\	ca-	ca-	.
.	.	.	.	.	.	.	.	.	2A\	-tes	-tes,	.	(4c\	-tes	-tes	.	4cc\	.	.	.
!	!	!	!	!	!	!	!	!	!	!	!	!	!LO:SIC:v:s=4g\)	!	!	!	!LO:SIC:s=4b\	!	!	!
.	.	.	.	.	.	.	.	.	.	.	.	.	4a\)	.	.	.	4b\)	.	.	.
=19	=19	=19	=19	=19	=19	=19	=19	=19	=19	=19	=19	=19	=19	=19	=19	=19	=19	=19	=19	=19
!	!	!	!	!	!	!	!	!	!	!	!	!	!	!	!	!	!LO:SIC:s=2.a\)	!	!	!
.	.	.	.	.	.	.	.	.	2d\	Lau-	Lau-	.	2.f#X\	Mar-	Mar-	.	2.a\	.	.	.
.	.	.	.	.	.	.	.	.	2d\	-des	-des	.	.	.	.	.	.	.	.	.
.	.	.	.	.	.	.	.	.	.	.	.	.	4f#\	-ty-	-ty-	.	(4a\	-nen-	-nen-	.
!	!	!	!	!	!	!	!	!	!LO:SIC:s=2c\	!	!	!	!	!	!	!	!	!	!	!
.	.	.	.	.	.	.	.	.	2cn\	ca-	ca-	.	2f#\	-ris	-ris,	.	4b\	.	.	.
!	!	!	!	!	!	!	!	!	!	!	!	!	!	!	!	!	!LO:SIC:s=4cc\	!	!	!
.	.	.	.	.	.	.	.	.	.	.	.	.	.	.	.	.	4cc\)	.	.	.
*	*	*	*	*	*	*	*	*	*	*	*	*	*	*	*	*	*custos:dd	*	*	*
!	!	!	!	!	!	!	!	!	!	!	!	!	!	!	!	!	!LO:LB:g=original	!	!	!
=20	=20	=20	=20	=20	=20	=20	=20	=20	=20	=20	=20	=20	=20	=20	=20	=20	=20	=20	=20	=20
!LO:N:vis=00	!	!	!	!	!LO:N:vis=00	!	!	!	!LO:SIC:s=(2B\	!	!	!	!	!	!	!	!LO:SIC:s=2dd\)	!	!	!
00.r	.	.	.	.	00.r	.	.	.	2B\	-nen-	-nen-	.	2g\	Lau-	Lau-	.	2dd\	.	.	.
.	.	.	.	.	.	.	.	.	2G/	.	.	.	2d\,<	-des	-des	.	2b\,<	-tes	-tes,	.
.	.	.	.	.	.	.	.	.	2B\	.	.	.	2g\	ca-	ca-	.	2dd\	ca-	ca-	.
!	!	!	!	!	!	!	!	!	!LO:LB:g=original	!	!	!	!	!	!	!	!	!	!	!
=21	=21	=21	=21	=21	=21	=21	=21	=21	=21	=21	=21	=21	=21	=21	=21	=21	=21	=21	=21	=21
!	!	!	!	!	!	!	!	!	!	!	!	!	!	!	!	!	!LO:SIC:s=(2g/	!	!	!
.	.	.	.	.	.	.	.	.	2.c\	.	.	.	1e\	-nen-	-nen-	.	2g/	-nen-	-nen-	.
.	.	.	.	.	.	.	.	.	.	.	.	.	.	.	.	.	4a\	.	.	.
!	!	!	!	!	!	!	!	!	!LO:SIC:s=4B\)	!	!	!	!	!	!	!	!LO:SIC:s=4b\)	!	!	!
.	.	.	.	.	.	.	.	.	4B\	.	.	.	.	.	.	.	4b\	.	.	.
.	.	.	.	.	.	.	.	.	2A\	-tes	-tes	.	(4f#X\	-tes	-tes	.	(4cc\	-tes	-tes	.
.	.	.	.	.	.	.	.	.	.	.	.	.	4e\)	.	.	.	4a\)	.	.	.
=22	=22	=22	=22	=22	=22	=22	=22	=22	=22	=22	=22	=22	=22	=22	=22	=22	=22	=22	=22	=22
.	.	.	.	.	.	.	.	.	1B\	Mar-	Mar-	.	1e\	Mar-	Mar-	.	1f#X/	Mar-	Mar-	.
.	.	.	.	.	.	.	.	.	2B\	-ty-	-ty-	.	2d#X\	-ty-	-ty-	.	2f#/	-ty-	-ty-	.
=23	=23	=23	=23	=23	=23	=23	=23	=23	=23	=23	=23	=23	=23	=23	=23	=23	=23	=23	=23	=23
.	.	.	.	.	.	.	.	.	1.E,<	-ris.	-ris,	.	1.e\,<	-ris	-ris,	.	1.g#X\,<	-ris	-ris,	.
!	!	!	!	!	!	!	!	!	!	!	!	!	!LO:LB:g=original	!	!	!	!	!	!	!
!	!	!	!	!	!	!	!	!	!LO:MO:mod==24	!LO:MO:mod==24	!LO:MO:mod==24	!LO:MO:mod==24	!	!	!	!	!LO:MO:mod==24	!LO:MO:mod==24	!LO:MO:mod==24	!LO:MO:mod==24
=24	=24	=24	=24	=24	=24	=24	=24	=24	=24||	=24||	=24||	=24||	=24	=24	=24	=24	=24||	=24||	=24||	=24||
!LO:TX:a:t=P:problem=♮ below	!	!	!	!	!LO:SIC:s=2G\	!	!	!	!LO:SIC:s=2G/	!	!	!	!LO:SIC:s=2d\	!	!	!	!	!	!	!
!LO:SIC:s=2G\	!	!	!	!	!	!	!	!	!	!	!	!	!	!	!	!	!	!	!	!
2Gn\	Lau-	Fun-	.	.	2Gn\	Lau-	Lau-	.	2Gn/	Lau-	Lau-	.	2dn\	Lau-	Lau-	.	2b\	Lau-	Lau-	.
!	!	!	!	!	!	!	!	!	!	!	!	!	!	!	!	!	!LO:SIC:s=2b\,	!	!	!
2G\	-des	-dens-	.	.	2G\,<	-des	-des	.	2G/,<	-des	-des	.	2d\,<	-des	-des	.	2bni\,<	-des	-des	.
2G#X\	ca-	-q(ue)	.	.	2G#X\	ca-	ca-	.	2B\	ca-	ca-	.	2e\	ca-	ca-	.	2b\	ca-	ca-	.
=25	=25	=25	=25	=25	=25	=25	=25	=25	=25	=25	=25	=25	=25	=25	=25	=25	=25	=25	=25	=25
!	!	!	!	!	!	!	!	!	!	!	!	!	!	!	!	!	!LO:SIC:s=2cc\	!	!	!
2A\	-nen-	pro	.	.	2A\	-nen-	-nen-	.	2A\	-nen-	-nen-	.	2e\	-nen-	-nen-	.	2ccn\	-nen-	-nen-	.
2A\,<	-tes	.	.	.	2A\,<	-tes	-tes,	.	2A\,<	-tes	-tes,	.	2e\,<	-tes	-tes,	.	2cc\,<	-tes	-tes,	.
*	*ij	*	*	*	*	*	*	*	*	*	*	*	*	*	*	*	*	*	*	*
2E\	ca-	Te	.	.	2E\	ca-	ca-	.	2G#X/	ca-	ca-	.	2e\	ca-	ca-	.	2b\	ca-	ca-	.
=26	=26	=26	=26	=26	=26	=26	=26	=26	=26	=26	=26	=26	=26	=26	=26	=26	=26	=26	=26	=26
!LO:SIC:s=1F\	!	!	!	!	!LO:SIC:s=(1F\	!	!	!	!	!	!	!	!LO:SIC:s=(2f\	!	!	!	!	!	!	!
1Fn\	-nen-	San-	.	.	1Fn\	-nen-	-nen-	.	(2A\	-nen-	-nen-	.	(2fn\	-nen-	-nen-	.	(2cc\	-nen-	-nen-	.
.	.	.	.	.	.	.	.	.	2B\)	.	.	.	2g\)	.	.	.	2dd\)	.	.	.
!	!	!	!	!	!LO:SIC:s=2E\)	!	!	!	!	!	!	!	!	!	!	!	!	!	!	!
2E\	.	.	.	.	2E\	.	.	.	[<2c\	-tes	-tes	.	2g\	-tes	-tes	.	2ee\,<	-tes	-tes	.
=27	=27	=27	=27	=27	=27	=27	=27	=27	=27	=27	=27	=27	=27	=27	=27	=27	=27	=27	=27	=27
2D\	-tes	.	.	.	2D\	-tes	-tes	.	2c\,<]	.	.	.	(2a\	Mar-	Mar-	.	(2ff\	Mar-	Mar-	.
*	*Xij	*	*	*	*	*	*	*	*	*	*	*	*	*	*	*	*	*	*	*
2G\	Mar-	.	.	.	2G\	Mar-	Mar-	.	2c\	Mar-	Mar-	.	2g\)	.	.	.	2dd\)	.	.	.
2GG/	-ty-	-gvi-	.	.	2GG/	-ty-	-ty-	.	2B\	-ty-	-ty-	.	2g\	-ty-	-ty-	.	2dd\	-ty-	-ty-	.
!LO:LB:g=original	!	!	!	!	!	!	!	!	!	!	!	!	!	!	!	!	!	!	!	!
=28-	=28-	=28-	=28-	=28-	=28	=28	=28	=28	=28	=28	=28	=28	=28	=28	=28	=28	=28	=28	=28	=28
1.C/,<	-ris,	-nem	.	.	1.C/	-ris	-ris,	.	1.c\,<	-ris	-ris,	.	1.g\,<	-ris	-ris,	.	1.ee\,<	-ris	-ris,	.
!	!	!	!	!	!LO:LB:g=original	!	!	!	!	!	!	!	!	!	!	!	!	!	!	!
=29	=29	=29	=29	=29	=29	=29	=29	=29	=29	=29	=29	=29	=29	=29	=29	=29	=29	=29	=29	=29
!	!	!	!	!	!	!	!	!	!	!	!	!	!LO:SIC:s=2g\	!	!	!	!	!	!	!
2c\	ab-	ae-	.	.	2c\	ab-	Ab-	.	2c\	ab-	Ab-	.	2gn\	ab-	Ab-	.	2ee\	ab-	Ab-	.
2c\	-sol-	-ter-	.	.	2c\	-sol-	-sol-	.	2c\	-sol-	-sol-	.	2a\	-sol-	-sol-	.	2ee\	-sol-	-sol-	.
!LO:SIC:s=2B\	!	!	!	!	!LO:SIC:s=2B\	!	!	!	!	!	!	!	!	!	!	!	!	!	!	!
2Bn\	-ve	-na	.	.	2Bn\	-ve	-ve	.	2d\	-ve	-ve	.	2g#X\	-ve	-ve	.	2dd\	-ve	-ve	.
=30	=30	=30	=30	=30	=30	=30	=30	=30	=30	=30	=30	=30	=30	=30	=30	=30	=30	=30	=30	=30
!	!	!	!	!	!	!	!	!	!	!	!	!	!	!	!	!	!LO:SIC:s=1cc\	!	!	!
1A\	ne-	do-	.	.	1A\	ne-	ne-	.	(2e\	ne-	ne-	.	(2a\	ne-	ne-	.	1ccn\	ne-	ne-	.
.	.	.	.	.	.	.	.	.	2A/)	.	.	.	2e\)	.	.	.	.	.	.	.
2E\	-xu	-na	.	.	2E\	-xu	-xu,	.	2G#X/,<	-xu	-xu,	.	2e\	-xu	-xu,	.	2b\	-xu	-xu,	.
!	!	!	!	!	!	!	!	!	!	!	!	!	!	!	!	!	!LO:LB:g=original	!	!	!
=31	=31	=31	=31	=31	=31	=31	=31	=31	=31	=31	=31	=31	=31	=31	=31	=31	=31	=31	=31	=31
*	*	*	*	*	*	*	*	*	*	*	*	*	*	*ij	*ij	*	*	*	*	*
2A\	ab-	ae-	.	.	2A\	ab-	Ab-	.	2A\	ab-	Ab-	.	2e\	ab-	Ab-	.	2cc\	ab-	Ab-	.
2A\	-ſol-	-ter-	.	.	2A\	-sol-	-sol-	.	2A\	-ſol-	-sol-	.	2e\	-sol-	-sol-	.	2cc\	-sol-	-sol-	.
!LO:SIC:s=2G\	!	!	!	!	!LO:SIC:s=2G\	!	!	!	!LO:SIC:s=2B\	!	!	!	!	!	!	!	!	!	!	!
2Gn\	-ve	-na	.	.	2Gn\	-ve	-ve	.	2Bn\	-ve	-ve	.	2e\	-ve	-ve	.	2b\	-ve	-ve	.
*	*	*	*	*	*	*	*	*	*custos:A	*	*	*	*	*	*	*	*	*	*	*
!	!	!	!	!	!	!	!	!	!LO:LB:g=original	!	!	!	!	!	!	!	!	!	!	!
=32	=32	=32	=32	=32	=32	=32	=32	=32	=32	=32	=32	=32	=32	=32	=32	=32	=32	=32	=32	=32
!	!	!	!	!	!	!	!	!	!LO:SIC:s=(2A\	!	!	!	!	!	!	!	!	!	!	!
(2.F\	ne-	do-	.	.	(2.F\	ne-	ne-	.	2A\	ne-	ne-	.	(2.f\	ne-	ne-	.	(2.a\	ne-	ne-	.
.	.	.	.	.	.	.	.	.	4B\	.	.	.	.	.	.	.	.	.	.	.
4E\)	.	.	.	.	4E\)	.	.	.	4c\	.	.	.	4g\)	.	.	.	4b\)	.	.	.
!	!	!	!	!	!	!	!	!	!LO:SIC:s=4d\	!	!	!	!	!	!	!	!	!	!	!
2D\	-xu	-na	.	.	2D/	-xu	-xu	.	(4d\	.	.	.	2a\,<	-xu	-xu	.	2cc\	-xu	-xu,	.
*	*	*	*	*	*	*	*	*	*	*	*	*	*	*Xij	*Xij	*	*	*	*	*
!	!	!	!	!	!	!	!	!	!LO:SIC:s=4A\	!	!	!	!	!	!	!	!	!	!	!
.	.	.	.	.	.	.	.	.	4A\)	.	.	.	.	.	.	.	.	.	.	.
=33	=33	=33	=33	=33	=33	=33	=33	=33	=33	=33	=33	=33	=33	=33	=33	=33	=33	=33	=33	=33
*	*	*	*	*	*	*	*	*	*	*	*	*	*	*	*	*	*	*ij	*ij	*
!	!	!	!	!	!LO:SIC:s=[1.E\	!	!	!	!LO:SIC:s=1G#X/)	!	!	!	!LO:SIC:s=[1.e\	!	!	!	!	!	!	!
[<1.E\	cri-	poſ-	.	.	1.E\	Cri-	cri-	.	1G#X/	.	.	.	1.e\	Cri-	cri-	.	1b\	ne-	ne-	.
.	.	.	.	.	.	.	.	.	2A/	-xu	-xu	.	.	.	.	.	2cc\	-xu	-xu	.
*	*	*	*	*	*	*	*	*	*	*	*	*	*	*	*	*	*	*Xij	*Xij	*
=34	=34	=34	=34	=34	=34	=34	=34	=34	=34	=34	=34	=34	=34	=34	=34	=34	=34	=34	=34	=34
!	!	!	!	!	!LO:SIC:s=1E\]	!	!	!	!	!	!	!	!LO:SIC:s=1e\]	!	!	!	!	!	!	!
1E\]	.	.	.	.	1E\	.	.	.	1A\	Cri-	cri-	.	1e\	.	.	.	1b\	Cri-	cri-	.
2E\	-mi-	-si-	.	.	2E\	-mi-	-mi-	.	2G#X/	-mi-	-mi-	.	2e\	-mi-	-mi-	.	2b\	-mi-	-mi-	.
=35-	=35	=35	=35-	=35	=35-	=35	=35	=35	=35	=35	=35	=35	=35-	=35-	=35-	=35-	=35	=35	=35	=35
!	!	!	!	!	!LO:SIC:s=0.AA/;	!	!	!	!LO:SIC:s=0.A\;	!	!	!	!	!	!	!	!	!	!	!
0.AA;/	-nis.	-det.	.	.	0.AA/	-nis.	-nis.	.	0.A\	-nis.	-nis.	.	0.e\;	-nis	-nis.	.	0.cc#X\;	-nis.	-nis.	.
!	!	!	!	!	!	!	!	!	!	!	!	!	!LO:LB:g=original	!	!	!	!	!	!	!
=36||	=36||	=36||	=36||	=36||	=36||	=36||	=36||	=36||	=36||	=36||	=36||	=36||	=36||	=36||	=36||	=36||	=36||	=36||	=36||	=36||
*M2/2	*	*	*	*	*M2/2	*	*	*	*M2/2	*	*	*	*M2/2	*	*	*	*M2/2	*	*	*
*met(C|)	*	*	*	*	*met(C|)	*	*	*	*met(C|)	*	*	*	*met(C|)	*	*	*	*met(C|)	*	*	*
*mmet(C|)	*	*	*	*	*mmet(C|)	*	*	*	*mmet(C|)	*	*	*	*mmet(C|)	*	*	*	*mmet(C|)	*	*	*
!	!	!	!	!	!	!	!	!	!LO:TX:a:t=9.:mod=	!	!	!	!	!	!	!	!LO:SIC:s=1g\	!	!	!
00r	.	.	.	.	00r	.	.	.	00r	.	.	.	00r	.	.	.	1gn\	Hic	Hic	.
=37	=37	=37	=37	=37	=37	=37	=37	=37	=37	=37	=37	=37	=37	=37	=37	=37	=37	=37	=37	=37
!	!	!	!	!	!	!	!	!	!	!	!	!	!	!	!	!	!LO:SIC:s=(2.cc\	!	!	!
.	.	.	.	.	.	.	.	.	.	.	.	.	.	.	.	.	(2.ccn\	nem-	nem-	.
!	!	!	!	!	!	!	!	!	!	!	!	!	!	!	!	!	!LO:SIC:s=8dd\L	!	!	!
.	.	.	.	.	.	.	.	.	.	.	.	.	.	.	.	.	8dd\L)	.	.	.
.	.	.	.	.	.	.	.	.	.	.	.	.	.	.	.	.	8cc\J	.	.	.
=38	=38	=38	=38	=38	=38	=38	=38	=38	=38	=38	=38	=38	=38	=38	=38	=38	=38	=38	=38	=38
!	!	!	!	!	!	!	!	!	!	!	!	!	!	!	!	!	!LO:SIC:s=2b\)	!	!	!
.	.	.	.	.	.	.	.	.	.	.	.	.	.	.	.	.	2b\	.	.	.
.	.	.	.	.	.	.	.	.	.	.	.	.	.	.	.	.	2g/,<	-pe	-pe	.
=39	=39	=39	=39	=39	=39	=39	=39	=39	=39	=39	=39	=39	=39	=39	=39	=39	=39	=39	=39	=39
.	.	.	.	.	.	.	.	.	.	.	.	.	.	.	.	.	2a\	mun-	mun-	.
.	.	.	.	.	.	.	.	.	.	.	.	.	.	.	.	.	2b\	-di	-di	.
=40	=40	=40	=40	=40	=40	=40	=40	=40	=40	=40	=40	=40	=40	=40	=40	=40	=40	=40	=40	=40
!	!	!	!	!	!	!	!	!	!	!	!	!	!LO:SIC:s=1c\	!	!	!	!	!	!	!
00r	.	.	.	.	00r	.	.	.	00r	.	.	.	1cni\	Hic	Hic	.	(2.cc\	gau-	gau-	.
!	!	!	!	!	!	!	!	!	!	!	!	!	!	!	!	!	!LO:SIC:s=4b\	!	!	!
.	.	.	.	.	.	.	.	.	.	.	.	.	.	.	.	.	4b\)	.	.	.
=41	=41	=41	=41	=41	=41	=41	=41	=41	=41	=41	=41	=41	=41	=41	=41	=41	=41	=41	=41	=41
!	!	!	!	!	!	!	!	!	!	!	!	!	!LO:SIC:s=(2.f\	!	!	!	!LO:SIC:s=2.a\)	!	!	!
.	.	.	.	.	.	.	.	.	.	.	.	.	(2.fn\	nem-	nem-	.	2.a\	.	.	.
!	!	!	!	!	!	!	!	!	!	!	!	!	!LO:SIC:s=8g\L	!	!	!	!	!	!	!
.	.	.	.	.	.	.	.	.	.	.	.	.	8g\L)	.	.	.	4a\	-di-	-di-	.
.	.	.	.	.	.	.	.	.	.	.	.	.	8f\J	.	.	.	.	.	.	.
=42	=42	=42	=42	=42	=42	=42	=42	=42	=42	=42	=42	=42	=42	=42	=42	=42	=42	=42	=42	=42
!	!	!	!	!	!	!	!	!	!	!	!	!	!LO:SIC:s=2e\)	!	!	!	!	!	!	!
.	.	.	.	.	.	.	.	.	.	.	.	.	2e\	.	.	.	2g/,<	-a	-a,	.
!	!	!	!	!	!	!	!	!	!	!	!	!	!	!	!	!	!LO:TX:t=P:problem=skreślony dźwięk 2g	!	!	!
.	.	.	.	.	.	.	.	.	.	.	.	.	2c/,<	-pe	-pe	.	2a/	hic	Hic	.
*	*	*	*	*	*	*	*	*	*	*	*	*	*	*	*	*	*custos:b	*	*	*
!	!	!	!	!	!	!	!	!	!	!	!	!	!	!	!	!	!LO:LB:g=original	!	!	!
=43	=43	=43	=43	=43	=43	=43	=43	=43	=43	=43	=43	=43	=43	=43	=43	=43	=43	=43	=43	=43
.	.	.	.	.	.	.	.	.	.	.	.	.	(2d\	mun-	mun-	.	2b\	nem-	nem-	.
.	.	.	.	.	.	.	.	.	.	.	.	.	2e\)	.	.	.	2cc\	-pe	-pe	.
=44	=44	=44	=44	=44	=44	=44	=44	=44	=44	=44	=44	=44	=44	=44	=44	=44	=44	=44	=44	=44
00r	.	.	.	.	00r	.	.	.	1r	.	.	.	2.f\	-di	-di	.	(4a\	mun-	mun-	.
.	.	.	.	.	.	.	.	.	.	.	.	.	.	.	.	.	4b\)	.	.	.
.	.	.	.	.	.	.	.	.	.	.	.	.	.	.	.	.	(4cc\	-di	-di	.
!	!	!	!	!	!	!	!	!	!	!	!	!	!LO:SIC:s=(4e\	!	!	!	!	!	!	!
.	.	.	.	.	.	.	.	.	.	.	.	.	4e\	gau-	gau-	.	4a\)	.	.	.
=45	=45	=45	=45	=45	=45	=45	=45	=45	=45	=45	=45	=45	=45	=45	=45	=45	=45	=45	=45	=45
!	!	!	!	!	!	!	!	!	!	!	!	!LO:DY:a:t=For	!LO:SIC:s=2.d\)	!	!	!	!	!	!	!
.	.	.	.	.	.	.	.	.	1G/	Hic	Hic	f	2.d\	.	.	.	2b\	gau-	gau-	.
.	.	.	.	.	.	.	.	.	.	.	.	.	.	.	.	.	2b\	-di-	-di-	.
.	.	.	.	.	.	.	.	.	.	.	.	.	4d\	-di-	-di-	.	.	.	.	.
=46	=46	=46	=46	=46	=46	=46	=46	=46	=46	=46	=46	=46	=46	=46	=46	=46	=46	=46	=46	=46
.	.	.	.	.	.	.	.	.	(2.c\	nem-	nem-	.	2c\,<	-a	-a,	.	2cc\,<	-a	-a,	.
.	.	.	.	.	.	.	.	.	.	.	.	.	2e\	hic	Hic	.	1g	mun-	mun-	.
.	.	.	.	.	.	.	.	.	8d\L	.	.	.	.	.	.	.	.	.	.	.
!	!	!	!	!	!	!	!	!	!LO:SIC:s=8c\J	!	!	!	!	!	!	!	!	!	!	!
.	.	.	.	.	.	.	.	.	8c\J)	.	.	.	.	.	.	.	.	.	.	.
=47	=47	=47	=47	=47	=47	=47	=47	=47	=47	=47	=47	=47	=47	=47	=47	=47	=47-	=47	=47	=47
!	!	!	!	!	!	!	!	!	!LO:SIC:s=2B\)	!	!	!	!	!	!	!	!	!	!	!
.	.	.	.	.	.	.	.	.	2B\	.	.	.	2d\	nem-	nem-	.	.	.	.	.
.	.	.	.	.	.	.	.	.	2G/,<	-pe	-pe	.	2B/,<	-pe	-pe	.	2g/	-di	-di	.
=48	=48	=48	=48	=48	=48	=48	=48	=48	=48	=48	=48	=48	=48	=48	=48	=48	=48	=48	=48	=48
!	!	!	!	!	!	!	!	!	!	!	!	!	!	!	!	!	!LO:SIC:s=2f/	!	!	!
1r	.	.	.	.	1r	.	.	.	2A\	mun-	mun-	.	(2c\	mun-	mun-	.	2fn/	gau-	gau-	.
.	.	.	.	.	.	.	.	.	2B\	-di	-di	.	2d\)	.	.	.	2d/	-di-	-di-	.
=49	=49	=49	=49	=49	=49	=49	=49	=49	=49	=49	=49	=49	=49	=49	=49	=49	=49	=49	=49	=49
!	!	!	!	!	!	!	!	!	!LO:SIC:s=(2.c\	!	!	!	!	!	!	!	!	!	!	!
1C/	Hic	Ob	.	.	1C/	Hic	Hic	.	2.c\	gau-	gau-	.	2G/,<	-di	-di,	.	1e/,<	-a	-a,	.
.	.	.	.	.	.	.	.	.	.	.	.	.	2g\	hic	Hic	.	.	.	.	.
.	.	.	.	.	.	.	.	.	4B\	.	.	.	.	.	.	.	.	.	.	.
=50	=50	=50	=50	=50	=50	=50	=50	=50	=50	=50	=50	=50	=50	=50	=50	=50	=50	=50	=50	=50
!	!	!	!	!	!LO:SIC:s=(2.F\	!	!	!	!LO:SIC:s=2A/)	!	!	!	!	!	!	!	!	!	!	!
2.F\	nem-	hoc	.	.	2.F\	nem-	nem-	.	2A/	.	.	.	2.c/	nem-	nem-	.	00r	.	.	.
.	.	.	.	.	.	.	.	.	2A/	-di-	-di-	.	.	.	.	.	.	.	.	.
8G\L	.	pre-	.	.	8G\L	.	.	.	.	.	.	.	4d/	-pe	-pe	.	.	.	.	.
8F\J	.	.	.	.	8F\J	.	.	.	.	.	.	.	.	.	.	.	.	.	.	.
=51	=51	=51	=51	=51	=51	=51	=51	=51	=51	=51	=51	=51	=51	=51	=51	=51	=51	=51	=51	=51
!	!	!	!	!	!LO:SIC:s=2E\)	!	!	!	!	!	!	!	!	!	!	!	!	!	!	!
2E\	.	-ca-	.	.	2E\	.	.	.	2G/,<	-a	-a,	.	2e\	mun-	mun-	.	.	.	.	.
2C/,<	-pe	-tu	.	.	2C/,<	-pe	-pe	.	2c\	et	Et	.	2e\,<	-di	-di	.	.	.	.	.
*	*	*	*	*	*custos:D	*	*	*	*	*	*	*	*custos:f	*	*	*	*	*	*	*
!LO:LB:g=original	!	!	!	!	!LO:LB:g=original	!	!	!	!	!	!	!	!LO:LB:g=original	!	!	!	!	!	!	!
=52	=52	=52	=52	=52	=52	=52	=52	=52	=52	=52	=52	=52	=52	=52	=52	=52	=52	=52	=52	=52
2D\	mun-	sup-	.	.	2D\	mun-	mun-	.	2A/	blan-	blan-	.	(2f\	gau-	gau-	.	.	.	.	.
2E\	-di	.	.	.	2E\	-di	-di	.	2G/	-da	-da	.	4e\	.	.	.	.	.	.	.
!	!	!	!	!	!	!	!	!	!	!	!	!	!LO:SIC:s=4d\	!	!	!	!	!	!	!
.	.	.	.	.	.	.	.	.	.	.	.	.	4d\)	.	.	.	.	.	.	.
*	*	*	*	*	*	*	*	*	*custos:A	*	*	*	*	*	*	*	*	*	*	*
!	!	!	!	!	!	!	!	!	!LO:LB:g=original	!	!	!	!	!	!	!	!	!	!	!
=53	=53	=53	=53	=53	=53	=53	=53	=53	=53	=53	=53	=53	=53	=53	=53	=53	=53	=53	=53	=53
!	!	!	!	!	!LO:SIC:s=(2.F\	!	!	!	!	!	!	!	!	!	!	!	!	!	!	!
(2.F\	gau-	.	.	.	2.F\	gau-	gau-	.	2.A/	frau-	frau-	.	2c/	.	.	.	.	.	.	.
.	.	.	.	.	.	.	.	.	.	.	.	.	4d\	.	.	.	.	.	.	.
4E\)	.	.	.	.	4E\	.	.	.	4G/	-dum	-dum	.	4e\	.	.	.	.	.	.	.
=54	=54	=54	=54	=54	=54	=54	=54	=54	=54	=54	=54	=54	=54	=54	=54	=54	=54	=54	=54	=54
!	!	!	!	!	!LO:SIC:s=2.D/)	!	!	!	!	!	!	!	!LO:SIC:s=2.f\)	!	!	!	!	!	!	!
2D/	.	.	.	.	2.D/	.	.	.	2A\	pa-	pa-	.	2.f\	.	.	.	1r	.	.	.
2D/	-di-	-pli-	.	.	.	.	.	.	2B\	-bu-	-bu-	.	.	.	.	.	.	.	.	.
.	.	.	.	.	4D/	-di-	-di-	.	.	.	.	.	4f\	-di-	-di-	.	.	.	.	.
=55	=55	=55	=55	=55	=55	=55	=55	=55	=55	=55	=55	=55	=55	=55	=55	=55	=55	=55	=55	=55
2C/,<	-a	-ci	.	.	2C/,<	-a	-a,	.	1c\,<	-la	-la	.	2e\,<	-a	-a,	.	2r	.	.	.
2E\	et	Te	.	.	2E\	et	Et	.	.	.	.	.	2g\	et	Et	.	(4cc\	et	Et	.
.	.	.	.	.	.	.	.	.	.	.	.	.	.	.	.	.	4b\)	.	.	.
=56	=56	=56	=56	=56	=56	=56	=56	=56	=56	=56	=56	=56	=56	=56	=56	=56	=56	=56	=56	=56
(4F\	blan-	pos-	.	.	(4F\	blan-	blan-	.	2r	.	.	.	2f\	blan-	blan-	.	(4a\	blan-	blan-	.
4G\)	.	.	.	.	4G\)	.	.	.	.	.	.	.	.	.	.	.	4b\)	.	.	.
(4A\	-da	-ci-	.	.	(4A\	-da	-da	.	2c\	im-	Im-	.	(4e\	-da	-da	.	(4cc\	-da	-da	.
4F\)	.	.	.	.	4F\)	.	.	.	.	.	.	.	4f\)	.	.	.	4a\)	.	.	.
=57	=57	=57	=57	=57	=57	=57	=57	=57	=57	=57	=57	=57	=57	=57	=57	=57	=57	=57	=57	=57
!	!	!	!	!	!	!	!	!	!LO:SIC:s=(2B\	!	!	!	!	!	!	!	!	!	!	!
2G\	frau-	-m(us)	.	.	2G\	frau-	frau-	.	2B\	-bu-	-bu-	.	2d\	frau-	frau-	.	2b\	frau-	frau-	.
!	!	!	!	!	!	!	!	!	!LO:MO:mod=[2G/	!	!	!	!	!	!	!	!	!	!	!
2G\	-dum	pi-	.	.	2G\	-dum	-dum	.	1G	.	.	.	2d\	-dum	-dum	.	2b\,<	-dum	-dum	.
=58	=58	=58	=58	=58	=58	=58	=58	=58	=58-	=58	=58	=58	=58	=58	=58	=58	=58	=58	=58	=58
!	!	!	!	!	!	!	!	!	!LO:MO:null:mod=2G/])	!	!	!	!	!	!	!	!	!	!	!
2C/	pa-	-jſ-	.	.	2C/	pa-	pa-	.	.	.	.	.	2e\	pa-	pa-	.	2cc\	pa-	pa-	.
2D/	-bu-	-si-	.	.	2D\	-bu-	-bu-	.	2d\	-ta	-ta	.	2f#X\	-bu-	-bu-	.	2a\	-bu-	-bu-	.
=59	=59	=59	=59	=59	=59	=59	=59	=59	=59	=59	=59	=59	=59	=59	=59	=59	=59	=59	=59	=59
!	!	!	!	!	!	!	!	!	!LO:SIC:s=(2B\	!	!	!	!	!	!	!	!	!	!	!
2GG/,<	-la	-me	.	.	2G\,<	-la	-la	.	2B\	fel-	fel-	.	2d\,<	-la	-la,	.	1g\,<	-la	-la	.
!	!	!	!	!	!	!	!	!	!LO:MO:mod=[2c\	!	!	!	!	!	!	!	!	!	!	!
2C/	im-	in	.	.	2C/	im-	Im-	.	1c\	.	.	.	(2e\	pa-	pa-	.	.	.	.	.
=60	=60	=60	=60	=60	=60	=60	=60	=60	=60-	=60	=60	=60	=60	=60	=60	=60	=60	=60	=60	=60
!	!	!	!	!	!	!	!	!	!LO:MO:null:mod=2c\])	!	!	!	!LO:SIC:s=2f\)	!	!	!	!	!	!	!
2F\	-bu-	hoc	.	.	2F\	-bu-	-bu-	.	.	.	.	.	2fn\)	.	.	.	2r	.	.	.
2G\	-ta	tri-	.	.	2G\	-ta	-ta	.	2B\	-le	-le	.	2d\	-bu-	-bu-	.	2g/	im-	Im-	.
*	*	*	*	*	*	*	*	*	*	*	*	*	*	*	*	*	*custos:cc	*	*	*
!	!	!	!	!	!	!	!	!	!	!	!	!	!	!	!	!	!LO:LB:g=original	!	!	!
=61	=61	=61	=61	=61	=61	=61	=61	=61	=61	=61	=61	=61	=61	=61	=61	=61	=61	=61	=61	=61
!	!	!	!	!	!	!	!	!	!LO:SIC:s=(2c\	!	!	!	!	!	!	!	!LO:SIC:s=(2.cc\	!	!	!
2.C/	fel-	-um-	.	.	2.C/	fel-	fel-	.	2c\	de-	de-	.	1e\,<	-la	-la	.	2.cc\	-bu-	-bu-	.
.	.	.	.	.	.	.	.	.	[2G/	.	.	.	.	.	.	.	.	.	.	.
4C/	-le	-pho	.	.	4C/	-le	-le	.	.	.	.	.	.	.	.	.	8dd\L	.	.	.
.	.	.	.	.	.	.	.	.	.	.	.	.	.	.	.	.	8cc\J	.	.	.
=62	=62	=62	=62	=62	=62	=62	=62	=62	=62	=62	=62	=62	=62	=62	=62	=62	=62	=62	=62	=62
!LO:SIC:s=(2GG/	!	!	!	!	!LO:SIC:s=(2GG/	!	!	!	!	!	!	!	!	!	!	!	!LO:SIC:s=2b\)	!	!	!
2GG/	de-	mar-	.	.	2GG/	de-	de-	.	2.G/]	.	.	.	2r	.	.	.	2b\	.	.	.
1C	.	.	.	.	1C	.	.	.	.	.	.	.	2e\	im-	Im-	.	2g/,<	-ta	-ta	.
.	.	.	.	.	.	.	.	.	4F/	.	.	.	.	.	.	.	.	.	.	.
=63-	=63	=63	=63-	=63	=63-	=63	=63	=63	=63	=63	=63	=63	=63	=63	=63	=63	=63	=63	=63	=63
.	.	.	.	.	.	.	.	.	2E/	.	.	.	(2c/	-bu-	-bu-	.	2a\	fel-	fel-	.
!	!	!	!	!	!	!	!	!	!LO:MO:mod=[2G/	!	!	!	!	!	!	!	!	!	!	!
2BB/	.	.	.	.	2BB/	.	.	.	1G/	.	.	.	2d/)	.	.	.	2b\,<	-le	-le	.
=64	=64	=64	=64	=64	=64	=64	=64	=64	=64-	=64	=64	=64	=64	=64	=64	=64	=64	=64	=64	=64
!	!	!	!	!	!LO:SIC:s=2.AA/)	!	!	!	!LO:MO:null:mod=2G/])	!	!	!	!	!	!	!	!	!	!	!
2.AA/	.	.	.	.	2.AA/	.	.	.	.	.	.	.	2c/,<	-ta	-ta	.	2.cc\	de-	de-	.
.	.	.	.	.	.	.	.	.	2F#X/	-pu-	-pu-	.	2A/	fel-	fel-	.	.	.	.	.
4AA/	-pu-	-ty-	.	.	4AA/	-pu-	-pu-	.	.	.	.	.	.	.	.	.	4cc\	-pu-	-pu-	.
*	*	*	*	*	*custos:GG	*	*	*	*	*	*	*	*custos:d	*	*	*	*	*	*	*
!	!	!	!	!	!LO:LB:g=original	!	!	!	!	!	!	!	!LO:LB:g=original	!	!	!	!	!	!	!
=65	=65	=65	=65	=65	=65	=65	=65	=65	=65	=65	=65	=65	=65	=65	=65	=65	=65	=65	=65	=65
2GG/,<	-tans	-ris	.	.	2GG/,<	-tans	-tans,	.	1G/,<	-tans	-tans,	.	(2d\	-le	-le	.	2b\,<	-tans	-tans,	.
!	!	!	!	!	!	!	!	!	!	!	!	!	!	!	!	!	!LO:SIC:s=(2b\	!	!	!
2G\	im-	in	.	.	2G\	im-	im-	.	.	.	.	.	2g\)	.	.	.	2b\	fel-	fel-	.
!LO:LB:g=original	!	!	!	!	!	!	!	!	!	!	!	!	!	!	!	!	!	!	!	!
=66	=66	=66	=66	=66	=66	=66	=66	=66	=66	=66	=66	=66	=66	=66	=66	=66	=66	=66	=66	=66
!	!	!	!	!	!	!	!	!	!	!	!	!	!LO:SIC:s=(2.e\	!	!	!	!LO:SIC:s=4cc\	!	!	!
(4A\	-bu-	hoc	.	.	(4A\	-bu-	-bu-	.	2r	.	.	.	2.e\	de-	de-	.	(4cc\	.	.	.
!	!	!	!	!	!	!	!	!	!	!	!	!	!	!	!	!	!LO:SIC:s=4b\	!	!	!
4G\)	.	.	.	.	4G\)	.	.	.	.	.	.	.	.	.	.	.	4b\)	.	.	.
!	!	!	!	!	!	!	!	!	!LO:SIC:s=(2c\	!	!	!	!	!	!	!	!LO:SIC:s=4cc\	!	!	!
(4A\	-ta	tri-	.	.	(4A\	-ta	-ta	.	2c\	de-	de-	.	.	.	.	.	(4cc\	.	.	.
!	!	!	!	!	!	!	!	!	!	!	!	!	!	!	!	!	!LO:SIC:s=4a\	!	!	!
4F\)	.	.	.	.	4F\)	.	.	.	.	.	.	.	4f\	.	.	.	4a\)	.	.	.
=67	=67	=67	=67	=67	=67	=67	=67	=67	=67	=67	=67	=67	=67	=67	=67	=67	=67	=67	=67	=67
!	!	!	!	!	!	!	!	!	!	!	!	!	!LO:SIC:s=2d\)	!	!	!	!LO:SIC:s=2b\)	!	!	!
2G\	fel-	-um-	.	.	2G\	fel-	fel-	.	2B\	.	.	.	2d\	.	.	.	2b\	.	.	.
!	!	!	!	!	!	!	!	!	!	!	!	!	!LO:MO:mod=([2g/	!	!	!	!	!	!	!
2C/	-le	-pho	.	.	2C/	-le	-le	.	2e\	.	.	.	1g	-pu-	-pu-	.	2cc\	-le	-le	.
=68	=68	=68	=68	=68	=68	=68	=68	=68	=68	=68	=68	=68	=68-	=68	=68	=68	=68	=68	=68	=68
!	!	!	!	!	!	!	!	!	!LO:SIC:s=2.d\)	!	!	!	!LO:MO:null:mod=2g/]	!	!	!	!	!	!	!
2.D\	de-	Mar-	.	.	2.D\	de-	de-	.	2.d\	-pu-	.	.	.	.	.	.	2.a\	de-	de-	.
!	!	!	!	!	!	!	!	!	!	!	!	!	!LO:SIC:s=2f#X\)	!	!	!	!	!	!	!
.	.	.	.	.	.	.	.	.	.	.	.	.	2f#X\	.	.	.	.	.	.	.
4D\	-pu-	-ty-	.	.	4D\	-pu-	-pu-	.	4d\	.	-pu-	.	.	.	.	.	4a\	-pu-	-pu-	.
*	*	*	*	*	*	*	*	*	*custos:d	*	*	*	*	*	*	*	*	*	*	*
!	!	!	!	!	!	!	!	!	!LO:LB:g=original	!	!	!	!	!	!	!	!	!	!	!
=69	=69	=69	=69	=69	=69	=69	=69	=69	=69	=69	=69	=69	=69	=69	=69	=69	=69	=69	=69	=69
2GG/	-tans	-ris	.	.	2GG/,<	-tans	-tans,	.	2d\,<	-tans	-tans,	.	2g\,<	-tans	-tans,	.	2b\,<	-tans	-tans,	.
!	!	!	!	!	!	!	!	!	!	!	!	!LO:DY:a	!	!	!	!	!	!	!	!
2rBB	.	.	.	.	2rBB	.	.	.	2G/	per-	Per-	f	2g\	per-	Per-	.	2b\	per-	Per-	.
=70	=70	=70	=70	=70	=70	=70	=70	=70	=70	=70	=70	=70	=70	=70	=70	=70	=70	=70	=70	=70
00r	.	.	.	.	00r	.	.	.	2A\	-ve-	-ve-	.	2f#X\	-ve-	-ve-	.	2cc\	-ve-	-ve-	.
.	.	.	.	.	.	.	.	.	2B\	-nit	-nit	.	2g\,<	-nit	-nit	.	2dd\	-nit	-nit	.
=71	=71	=71	=71	=71	=71	=71	=71	=71	=71	=71	=71	=71	=71	=71	=71	=71	=71	=71	=71	=71
.	.	.	.	.	.	.	.	.	2c\	ad	ad	.	2g\,<	ad	ad	.	2ee\	ad	ad	.
.	.	.	.	.	.	.	.	.	2A/	cae-	cae-	.	2f#X\	cae-	cae-	.	2cc\	cae-	cae-	.
=72	=72	=72	=72	=72	=72	=72	=72	=72	=72	=72	=72	=72	=72	=72	=72	=72	=72	=72	=72	=72
!	!	!	!	!	!	!	!	!	!LO:SIC:s=(2G/	!	!	!	!	!	!	!	!LO:SIC:s=(2dd\	!	!	!
.	.	.	.	.	.	.	.	.	2G/	-le-	-le-	.	1.g\	-le-	-le-	.	2dd\	-le-	-le-	.
!	!	!	!	!	!	!	!	!	!	!	!	!	!	!	!	!	!LO:SIC:s=4cc\	!	!	!
.	.	.	.	.	.	.	.	.	2c\	.	.	.	.	.	.	.	(4cc\	.	.	.
!	!	!	!	!	!	!	!	!	!	!	!	!	!	!	!	!	!LO:SIC:s=4b\	!	!	!
.	.	.	.	.	.	.	.	.	.	.	.	.	.	.	.	.	4b\)	.	.	.
=73	=73	=73	=73	=73	=73	=73	=73	=73	=73	=73	=73	=73	=73-	=73	=73	=73	=73	=73	=73	=73
!	!	!	!	!	!	!	!	!	!LO:SIC:s=2d\)	!	!	!	!	!	!	!	!LO:SIC:s=2.a\)	!	!	!
.	.	.	.	.	.	.	.	.	2d\	.	.	.	.	.	.	.	2.a\	.	.	.
.	.	.	.	.	.	.	.	.	2D/	-sti-	-sti-	.	2f#X\	-sti-	-sti-	.	.	.	.	.
.	.	.	.	.	.	.	.	.	.	.	.	.	.	.	.	.	4a\	-sti-	-sti-	.
=74	=74	=74	=74	=74	=74	=74	=74	=74	=74	=74	=74	=74	=74	=74	=74	=74	=74	=74	=74	=74
2r	.	.	.	.	2r	.	.	.	2G/,<	-a	-a,	.	2g\,<	-a	-a,	.	2b\,<	-a	-a,	.
*	*	*	*	*	*	*	*	*	*	*	*	*	*	*	*	*	*custos:cc	*	*	*
!	!	!	!	!	!	!	!	!	!	!	!	!	!	!	!	!	!LO:LB:g=original	!	!	!
2C/	per-	di-	.	.	2C/	per-	Per-	.	2e\	per-	Per-	.	2g\	per-	Per-	.	2cc\	per-	Per-	.
=75	=75	=75	=75	=75	=75	=75	=75	=75	=75	=75	=75	=75	=75	=75	=75	=75	=75	=75	=75	=75
!	!	!	!	!	!	!	!	!	!	!	!	!	!LO:SIC:s=2f\	!	!	!	!	!	!	!
2D\	-ve-	-mit-	.	.	2D\	-ve-	-ve-	.	2d\	-ve-	-ve-	.	2fn\	-ve-	-ve-	.	2b\	-ve-	-ve-	.
2E\	-nit	-te	.	.	2E\	-nit	-nit	.	2c\	-nit	-nit	.	2g\	-nit	-nit	.	2ee\	-nit	-nit	.
=76	=76	=76	=76	=76	=76	=76	=76	=76	=76	=76	=76	=76	=76	=76	=76	=76	=76	=76	=76	=76
2F\	ad	no-	.	.	2F\	ad	ad	.	2c\	ad	ad	.	2a\	ad	ad	.	2cc\	ad	ad	.
!	!	!	!	!	!	!	!	!	!LO:SIC:s=2B\	!	!	!	!	!	!	!	!	!	!	!
2D/	cae-	-xam	.	.	2D/	cae-	cae-	.	2Bn\	cae-	cae-	.	2f\	cae-	cae-	.	2dd\	cae-	cae-	.
=77	=77	=77	=77	=77	=77	=77	=77	=77	=77	=77	=77	=77	=77	=77	=77	=77	=77	=77	=77	=77
!	!	!	!	!	!LO:SIC:s=(2C/	!	!	!	!LO:SIC:s=(2c\	!	!	!	!LO:SIC:s=(2g\	!	!	!	!LO:SIC:s=(2ee\	!	!	!
2C/	-le-	ser-	.	.	2C/	-le-	-le-	.	2c\	-le-	-le-	.	2g\	-le-	-le-	.	2ee\	-le-	-le-	.
!	!	!	!	!	!	!	!	!	!	!	!	!	!LO:SIC:s=4f\	!	!	!	!LO:MO:mod=[2cc\	!	!	!
2F\	.	.	.	.	2F\	.	.	.	2A/	.	.	.	(4fn\	.	.	.	1cc	.	.	.
!	!	!	!	!	!	!	!	!	!	!	!	!	!LO:SIC:s=4e\	!	!	!	!	!	!	!
.	.	.	.	.	.	.	.	.	.	.	.	.	4e\)	.	.	.	.	.	.	.
=78	=78	=78	=78	=78	=78	=78	=78	=78	=78	=78	=78	=78	=78	=78	=78	=78	=78-	=78	=78	=78
!	!	!	!	!	!LO:SIC:s=2.G\)	!	!	!	!LO:SIC:s=2.G/)	!	!	!	!LO:SIC:s=2.d\)	!	!	!	!LO:MO:null:mod=2cc\])	!	!	!
2.G\	.	.	.	.	2.G\	.	.	.	2.G/	.	.	.	2.d\	.	.	.	.	.	.	.
.	.	.	.	.	.	.	.	.	.	.	.	.	.	.	.	.	2b\	-sti-	-sti-	.
4GG/	-sti-	-vu-	.	.	4GG/	-sti-	-sti-	.	4G/	-sti-	-sti-	.	4d\	-sti-	-sti-	.	.	.	.	.
=79	=79	=79	=79	=79	=79	=79	=79	=79	=79	=79	=79	=79	=79	=79	=79	=79	=79	=79	=79	=79
2C/,<	-a	-lis	.	.	2C/,<	-a	-a,	.	2G/,<	-a	-a,	.	2e\,<	-a	-a,	.	2cc,<\	-a	-a,	.
2c\	per-	di-	.	.	2c\	per-	Per-	.	2c\	per-	Per-	.	2e\	per-	Per-	.	2rb	.	.	.
*	*	*	*	*	*	*	*	*	*	*	*	*	*custos:f	*	*	*	*	*	*	*
!	!	!	!	!	!	!	!	!	!	!	!	!	!LO:LB:g=original	!	!	!	!	!	!	!
=80	=80	=80	=80	=80	=80	=80	=80	=80	=80	=80	=80	=80	=80	=80	=80	=80	=80	=80	=80	=80
!LO:SIC:s=(2B\	!	!	!	!	!LO:SIC:s=(2B\	!	!	!	!	!	!	!	!	!	!	!	!	!	!	!LO:DY:b:t=forte
2Bn\	-ve-	-mit-	.	.	2Bn\	-ve-	-ve-	.	(2d\	-ve-	-ve-	.	2f\	-ve-	-ve-	.	1gg\	per-	Per-	f
!LO:SIC:s=2c\)	!	!	!	!	!LO:SIC:s=2c\)	!	!	!	!	!	!	!	!	!	!	!	!	!	!	!
2c\	.	.	.	.	2c\	.	.	.	2e\)	.	.	.	1e\	-nit	-nit	.	.	.	.	.
*	*	*	*	*	*custos:A	*	*	*	*	*	*	*	*	*	*	*	*	*	*	*
!	!	!	!	!	!LO:LB:g=original	!	!	!	!	!	!	!	!	!	!	!	!	!	!	!
=81	=81	=81	=81	=81	=81	=81	=81	=81	=81	=81	=81	=81	=81-	=81	=81	=81	=81	=81	=81	=81
!	!	!	!	!	!LO:SIC:s=(2A\	!	!	!	!	!	!	!	!	!	!	!	!LO:SIC:s=1ff\	!	!	!
2A\	-nit	.	.	.	2A\	-nit	-nit	.	(2c\	-nit	-nit	.	.	.	.	.	1ffn\	-ve-	-ve-	.
!LO:SIC:s=2B\	!	!	!	!	!LO:SIC:s=2B\)	!	!	!	!	!	!	!	!	!	!	!	!	!	!	!
2Bn\	.	-te	.	.	2Bn\	.	.	.	2d\)	.	.	.	[2d/	ad	ad	.	.	.	.	.
*	*	*	*	*	*	*	*	*	*custos:B	*	*	*	*	*	*	*	*	*	*	*
!	!	!	!	!	!	!	!	!	!LO:LB:g=original	!	!	!	!	!	!	!	!	!	!	!
=82	=82	=82	=82	=82	=82	=82	=82	=82	=82	=82	=82	=82	=82	=82	=82	=82	=82	=82	=82	=82
!	!	!	!	!	!LO:SIC:s=(2G\	!	!	!	!	!	!	!	!	!	!	!	!	!	!	!
(2G\	ad	no-	.	.	(2Gn\	ad	ad	.	2B\	ad	ad	.	2d/]	.	.	.	1ee\,<	-nit	-nit	.
2A\)	.	.	.	.	2A\)	.	.	.	1c	cae-	cae-	.	2c/	cae-	cae-	.	.	.	.	.
*custos:F	*	*	*	*	*	*	*	*	*	*	*	*	*	*	*	*	*	*	*	*
!LO:LB:g=original	!	!	!	!	!	!	!	!	!	!	!	!	!	!	!	!	!	!	!	!
=83	=83	=83	=83	=83	=83	=83	=83	=83	=83-	=83	=83	=83	=83	=83	=83	=83	=83	=83	=83	=83
!	!	!	!	!	!	!	!	!	!	!	!	!	!LO:SIC:s=(2a\	!	!	!	!	!	!	!
(2F\	cae-	-xam	.	.	(2F\	cae-	cae-	.	.	.	.	.	2a\	-le-	-le-	.	1dd\	ad	ad	.
!	!	!	!	!	!	!	!	!	!LO:SIC:s=[<2B\	!	!	!	!	!	!	!	!	!	!	!
2G\)	.	.	.	.	2G\)	.	.	.	[<2Bn\	.	.	.	1g	.	.	.	.	.	.	.
=84	=84	=84	=84	=84	=84	=84	=84	=84	=84	=84	=84	=84	=84-	=84	=84	=84	=84	=84	=84	=84
(2E\	-le-	ser-	.	.	(2E\	-le-	-le-	.	2B\]	.	.	.	.	.	.	.	2cc\	cae-	cae-	.
!	!	!	!	!	!LO:SIC:s=2F\	!	!	!	!	!	!	!	!LO:SIC:s=[2f\	!	!	!	!	!	!	!
2F\)	.	.	.	.	2F\)	.	.	.	1A	-le-	-le-	.	2fn\	.	.	.	1cc	-le-	-le-	.
=85	=85	=85	=85	=85	=85	=85	=85	=85	=85-	=85	=85	=85	=85	=85	=85	=85	=85-	=85	=85	=85
!	!	!	!	!	!LO:SIC:s=2.D/)	!	!	!	!	!	!	!	!LO:SIC:s=2.f\])	!	!	!	!	!	!	!
2.D/	.	.	.	.	2.D/	.	.	.	.	.	.	.	2.f\	.	.	.	.	.	.	.
.	.	.	.	.	.	.	.	.	2B\	-sti-	-sti-	.	.	.	.	.	2b\	-sti-	-sti-	.
4D/	-sti-	-vu-	.	.	4D/	-sti-	-sti-	.	.	.	.	.	4f\	-sti-	-sti-	.	.	.	.	.
=86	=86	=86	=86	=86	=86	=86	=86	=86	=86	=86	=86	=86	=86	=86	=86	=86	=86	=86	=86	=86
2C/,<	-a	-lis	.	.	2C/,<	-a	-a,	.	2G/,<	-a	-a,	.	2e\,<	-a	-a,	.	2cc\,<	-a	-a,	.
2E\	per-	di-	.	.	2E\	per-	Per-	.	2G/	per-	Per-	.	2g\	per-	Per-	.	2cc\	per-	Per-	.
=87	=87	=87	=87	=87	=87	=87	=87	=87	=87	=87	=87	=87	=87	=87	=87	=87	=87	=87	=87	=87
!	!	!	!	!	!	!	!	!	!	!	!	!	!LO:SIC:s=4f\	!	!	!	!	!	!	!
4F\	-ve-	-mit-	.	.	4F\	-ve-	-ve-	.	4A/	-ve-	-ve-	.	4fn\	-ve-	-ve-	.	4cc\	-ve-	-ve-	.
4F\,<	-nit	-te	.	.	4F\,<	-nit	-nit	.	4A/,<	-nit	-nit	.	4f\,<	-nit	-nit	.	4cc\	-nit	-nit	.
4C/	ad	no-	.	.	4C/	ad	ad	.	4G/	ad	ad	.	4e\	ad	ad	.	4cc\	ad	ad	.
4C/	cae-	-xam	.	.	4C/	cae-	cae-	.	4G/	cae-	cae-	.	4e\	cae-	cae-	.	4cc\	cae-	cae-	.
=88	=88	=88	=88	=88	=88	=88	=88	=88	=88	=88	=88	=88	=88	=88	=88	=88	=88	=88	=88	=88
1.F\	-le-	ser-	.	.	1.F\	-le-	-le-	.	[<1A	-le-	-le-	.	[<1f\	-le-	-le-	.	1.cc\	-le-	-le-	.
=89-	=89	=89	=89-	=89	=89-	=89	=89	=89	=89	=89	=89	=89	=89	=89	=89	=89	=89-	=89	=89	=89
!	!	!	!	!	!LO:MO:mod=!null:null	!	!	!	!LO:MO:mod=!null:null	!	!	!	!LO:MO:mod=!null:null	!	!	!	!LO:MO:mod=!null:null	!	!	!
!	!	!	!	!	!LO:N:xstem:cue:vis=4	!	!	!	!LO:N:xstem:cue:vis=4	!	!	!	!LO:N:xstem:cue:vis=4	!	!	!	!LO:N:xstem:cue:vis=4	!	!	!
.	.	.	.	.	.	.	.	.	2A/]	.	.	.	2f\]	.	.	.	.	.	.	.
2F\	-sti-	-vu-	.	.	2F\	-sti-	-sti-	.	2A/	-sti-	-sti-	.	2f\	-sti-	-sti-	.	2cc\	-sti-	-sti-	.
=90-	=90	=90	=90-	=90	=90	=90	=90	=90	=90	=90	=90	=90	=90-	=90	=90	=90	=90-	=90	=90	=90
!	!	!	!	!	!	!	!	!	!	!	!	!	!LO:N:vis=0	!	!	!	!	!	!	!
0.C/;	-a	-lis.	.	.	0.C/;	-a	-a.	.	0.G/;	-a.	-a.	.	0.e\;	-a.	-a.	.	0.cc\;	-a	-a.	.
*	*	*	*	*	*custos:A	*	*	*	*custos:A	*	*	*	*custos:e	*	*	*	*	*	*	*
!LO:PB:g=original	!	!	!	!	!LO:PB:g=original	!	!	!	!LO:PB:g=original	!	!	!	!LO:PB:g=original	!	!	!	!LO:PB:g=original	!	!	!
=91||	=91||	=91||	=91||	=91||	=91||	=91||	=91||	=91||	=91||	=91||	=91||	=91||	=91||	=91||	=91||	=91||	=91||	=91||	=91||	=91||
*M3/2	*	*	*	*	*M3/2	*	*	*	*M3/2	*	*	*	*M3/2	*	*	*	*M3/2	*	*	*
!!LO:TX:t= :mod=Tutti
!LO:TX:a:t=P:problem=następne zwrotki podpisane wcześniej	!	!	!	!	!LO:TX:a:t=Tutti.:mod=	!	!	!	!	!	!	!	!	!	!	!	!LO:SIC:s=2cc\	!	!	!
2A\	.	.	.	.	2A\	Poe-	Poe-	.	2A/	Poe-	Poe-	.	2e\	Poe-	Poe-	.	2ccn\	Poe-	Poe-	.
!	!	!	!	!	!LO:SIC:s=2A\	!	!	!	!	!	!	!	!	!	!	!	!	!	!	!
2A\,<	.	.	.	.	2A\,<	-nas	-nas	.	2A/	-nas	-nas	.	2e\	-nas	-nas	.	2cc\	-nas	-nas	.
!LO:SIC:s=2B\	!	!	!	!	!	!	!	!	!	!	!	!	!	!	!	!	!	!	!	!
2Bn\	.	.	.	.	2B\	cu-	cu-	.	2G#X/	cu-	cu-	.	2d\	cu-	cu-	.	2dd\	cu-	cu-	.
=92	=92	=92	=92	=92	=92	=92	=92	=92	=92	=92	=92	=92	=92	=92	=92	=92	=92	=92	=92	=92
(2.c\	.	.	.	.	(2.c\	-cur-	-cur-	.	(2.A\	-cur-	-cur-	.	(2.e\	-cur-	-cur-	.	(2.cc\	-cur-	-cur-	.
!	!	!	!	!	!	!	!	!	!	!	!	!	!	!	!	!	!LO:SIC:s=4dd\)	!	!	!
4B\	.	.	.	.	4B\)	.	.	.	4B\)	.	.	.	4d\)	.	.	.	4dd\	.	.	.
!	!	!	!	!	!	!	!	!	!	!	!	!	!	!	!	!	!LO:SIC:s=2ee\	!	!	!
2A\)	.	.	.	.	2A\	-rit	-rit,	.	2c\	-rit	-rit,	.	2c/	-rit	-rit,	.	2ee\)	-rit	-rit,	.
=93	=93	=93	=93	=93	=93	=93	=93	=93	=93	=93	=93	=93	=93	=93	=93	=93	=93	=93	=93	=93
2G#X\	.	.	.	.	2G#X\	cu-	cu-	.	2d\	Cu-	cu-	.	2e\	cu-	cu-	.	2b\	cu-	cu-	.
!	!	!	!	!	!LO:SIC:s=2G#\	!	!	!	!LO:SIC:s=(2d\	!	!	!	!	!	!	!	!	!	!	!
2G#\	.	.	.	.	2G#\,<	-cur-	-cur-	.	2d\	-cur-	-cur-	.	2e\	-cur-	-cur-	.	2b\	-cur-	-cur-	.
!	!	!	!	!	!	!	!	!	!LO:SIC:s=4c\	!	!	!	!	!	!	!	!	!	!	!
2A\,<	.	.	.	.	2A\	-rit	-rit	.	(4c\	.	.	.	2e\	-rit	-rit	.	2cc\	-rit	-rit	.
.	.	.	.	.	.	.	.	.	4B\)	.	.	.	.	.	.	.	.	.	.	.
=94	=94	=94	=94	=94	=94	=94	=94	=94	=94	=94	=94	=94	=94	=94	=94	=94	=94	=94	=94	=94
(2.F\	.	.	.	.	(2.F\	for-	for-	.	2A/	-rit	-rit	.	(2.f\	for-	for-	.	(2.dd\	for-	for-	.
.	.	.	.	.	.	.	.	.	(4B\	for-	for-	.	.	.	.	.	.	.	.	.
4E\	.	.	.	.	4E\	.	.	.	4c\	.	.	.	4g\	.	.	.	4ee\	.	.	.
!	!	!	!	!	!LO:SIC:s=2D/	!	!	!	!LO:SIC:s=4d\	!	!	!	!LO:SIC:s=2a\	!	!	!	!LO:SIC:s=2ff\	!	!	!
2D\)	.	.	.	.	2D/)	.	.	.	4d\)	.	.	.	2a\)	.	.	.	2ff\)	.	.	.
.	.	.	.	.	.	.	.	.	4A\	.	.	.	.	.	.	.	.	.	.	.
=95	=95	=95	=95	=95	=95	=95	=95	=95	=95	=95	=95	=95	=95	=95	=95	=95	=95	=95	=95	=95
!	!	!	!	!	!LO:SIC:s=2.E\)	!	!	!	!LO:SIC:s=2.G#X/)	!	!	!	!LO:SIC:s=2.e\)	!	!	!	!LO:SIC:s=2.b\)	!	!	!
2.E\	.	.	.	.	2.E\	.	.	.	2.G#X/	.	.	.	2.e\	.	.	.	2.b\	.	.	.
4E\	.	.	.	.	4E\	-ti-	-ti-	.	4G#/	-ti-	-ti-	.	4e\	-ti-	-ti-	.	4b\	-ti-	-ti-	.
2E\,<	.	.	.	.	2E\	-ter	-ter,	.	2G#/,<	-ter:	-ter,	.	2e\	-ter.	-ter,	.	2b\	-ter:	-ter,	.
!	!	!	!	!	!LO:MO:mod==96	!LO:MO:mod==96	!LO:MO:mod==96	!LO:MO:mod==96	!LO:MO:mod==96	!LO:MO:mod==96	!LO:MO:mod==96	!LO:MO:mod==96	!	!	!	!	!	!	!	!
=96	=96	=96	=96	=96	=96||	=96||	=96||	=96||	=96||	=96||	=96||	=96||	=96	=96	=96	=96	=96	=96	=96	=96
!LO:SIC:s=2C/	!	!	!	!	!	!	!	!LO:DY:a	!	!	!	!	!LO:N:vis=0	!	!	!	!	!	!	!
2Cn/	.	.	.	f	2C/	et	Et	f	2E/	et	Et	.	0.r	.	.	.	1.rdd	.	.	.
!	!	!	!	!	!LO:SIC:s=2E\	!	!	!	!	!	!	!	!	!	!	!	!	!	!	!
2E\	.	.	.	.	2En\	su-	su-	.	2Gn/	su-	su-	.	.	.	.	.	.	.	.	.
2C/	.	.	.	.	2C/	-ſtu-	-stu-	.	(4G/	-ſtu-	-stu-	.	.	.	.	.	.	.	.	.
.	.	.	.	.	.	.	.	.	4A/)	.	.	.	.	.	.	.	.	.	.	.
=97	=97	=97	=97	=97	=97	=97	=97	=97	=97	=97	=97	=97	=97	=97	=97	=97	=97	=97	=97	=97
(4G\	.	.	.	.	(4G\	-lit	-lit	.	(4B\	-lit	-lit	.	.	.	.	.	2g/	et	Et	.
4F\	.	.	.	.	4F\	.	.	.	4A\	.	.	.	.	.	.	.	.	.	.	.
!	!	!	!	!	!LO:SIC:s=4G\	!	!	!	!	!	!	!	!	!	!	!	!	!	!	!
4G\	.	.	.	.	4G\)	.	.	.	4B\	.	.	.	.	.	.	.	2b/	sus-	sus-	.
!	!	!	!	!	!LO:SIC:s=4A\,)	!	!	!	!	!	!	!	!	!	!	!	!	!	!	!
4A\)	.	.	.	.	4A\,<	.	.	.	4c\)	.	.	.	.	.	.	.	.	.	.	.
!	!	!	!	!	!	!	!	!	!LO:SIC:s=(4B\	!	!	!	!	!	!	!	!	!	!	!
4G\	.	.	.	.	(4G\	vi-	vi-	.	4B\	vi-	vi-	.	.	.	.	.	2g/	-tu-	-tu-	.
!	!	!	!	!	!	!	!	!	!LO:SIC:s=4A\)	!	!	!	!	!	!	!	!	!	!	!
4F\	.	.	.	.	4F\)	.	.	.	4A\	.	.	.	.	.	.	.	.	.	.	.
=98	=98	=98	=98	=98	=98	=98	=98	=98	=98	=98	=98	=98	=98	=98	=98	=98	=98	=98	=98	=98
!	!	!	!	!	!	!	!	!	!LO:SIC:s=2.G/	!	!	!	!	!	!	!	!	!	!	!
2E\	.	.	.	.	2.E\	-ri-	-ri-	.	2.Gn/	-ri-	-ri-	.	2c/	et	Et	.	(4cc\	-lit	-lit	.
.	.	.	.	.	.	.	.	.	.	.	.	.	.	.	.	.	4b\	.	.	.
2E\,<	.	.	.	.	.	.	.	.	.	.	.	.	2e\	suſ-	sus-	.	4cc\)	.	.	.
.	.	.	.	.	4E\	-li-	-li-	.	4G/	-li-	-li-	.	.	.	.	.	(4dd\	Vi-	vi-	.
2E\	.	.	.	.	2E\	-ter	-ter,	.	2G/	-ter	-ter,	.	2c/	-tu-	-tu-	.	4cc\	.	.	.
.	.	.	.	.	.	.	.	.	.	.	.	.	.	.	.	.	4b\)	.	.	.
=99	=99	=99	=99	=99	=99	=99	=99	=99	=99	=99	=99	=99	=99	=99	=99	=99	=99	=99	=99	=99
!	!	!	!	!	!	!	!	!	!	!	!	!	!LO:SIC:s=1f\,<	!	!	!	!	!	!	!
4F\	.	.	.	.	(4F\	vi-	vi-	.	(4A/	vi-	vi-	.	1fn\,<	-lit	-lit,	.	2.a\	ri-	ri-	.
4E	.	.	.	.	4E\	.	.	.	4G/	.	.	.	.	.	.	.	.	.	.	.
4F\	.	.	.	.	4F\	.	.	.	4A/	.	.	.	.	.	.	.	.	.	.	.
!	!	!	!	!	!	!	!	!	!LO:SIC:s=4B/	!	!	!	!	!	!	!	!	!	!	!
4G\	.	.	.	.	4G\	.	.	.	4B/)	.	.	.	.	.	.	.	4b\	-li-	-li-	.
4F\	.	.	.	.	4F\	.	.	.	4A/	.	.	.	2f\	et	Et	.	2cc\	-ter	-ter,	.
!	!	!	!	!	!	!	!	!	!LO:SIC:s=4G/)	!	!	!	!	!	!	!	!	!	!	!
4E\	.	.	.	.	4E\)	.	.	.	4G/	.	.	.	.	.	.	.	.	.	.	.
*	*	*	*	*	*	*	*	*	*custos:A	*	*	*	*	*	*	*	*	*	*	*
!	!	!	!	!	!LO:LB:g=original	!	!	!	!LO:LB:g=original	!	!	!	!	!	!	!	!	!	!	!
=100	=100	=100	=100	=100	=100	=100	=100	=100	=100	=100	=100	=100	=100	=100	=100	=100	=100	=100	=100	=100
2D/	.	.	.	.	2.D/	-ri-	-ri-	.	2.A/	-ri-	-ri-	.	2.f#X\	suſ-	sus-	.	2cc\	et	Et	.
2D/,<	.	.	.	.	.	.	.	.	.	.	.	.	.	.	.	.	2cc\	sus-	sus-	.
.	.	.	.	.	4D/	-li-	-li-	.	4A/	-li-	-li-	.	4f#\	-tu-	-tu-	.	.	.	.	.
!	!	!	!	!	!	!	!	!	!LO:SIC:s=2G/	!	!	!	!	!	!	!	!	!	!	!
2G\	.	.	.	.	2G\	-ter	-ter,	.	2Gn/	-ter	-ter,	.	2g\	-lit	-lit,	.	2b\	-tu-	-tu-	.
=101	=101	=101	=101	=101	=101	=101	=101	=101	=101	=101	=101	=101	=101	=101	=101	=101	=101	=101	=101	=101
2E\	.	.	.	.	(2E\	et	Et	.	(1G	et	Et	.	(2g\	suſ-	sus-	.	2cc\,<	-lit	-lit,	.
!	!	!	!	!	!	!	!	!	!	!	!	!	!	!	!	!	!LO:LB:g=original	!	!	!
2C/,<	.	.	.	.	2C/)	.	.	.	.	.	.	.	2e\)	.	.	.	2cc\	suſ-	sus-	.
!	!	!	!	!	!LO:SIC:s=(2c\	!	!	!	!	!	!	!	!	!	!	!	!	!	!	!
2c\	.	.	.	.	2c\	sus-	sus-	.	2A/)	.	.	.	2e\	-tu-	-tu-	.	2cc\	-tu-	-tu-	.
=102	=102	=102	=102	=102	=102	=102	=102	=102	=102	=102	=102	=102	=102	=102	=102	=102	=102	=102	=102	=102
!LO:SIC:s=1B\	!	!	!	!	!LO:SIC:s=2.B\)	!	!	!	!	!	!	!	!	!	!	!	!	!	!	!
1Bn\	.	.	.	.	2.B\	.	.	.	2.G#X/	suſ-	sus-	.	1d\,<	-lit	-lit,	.	1dd\,<	-lit	-lit,	.
.	.	.	.	.	4B\	-tu-	-tu-	.	4G#/	-tu-	-tu-	.	.	.	.	.	.	.	.	.
2A\	.	.	.	.	2A\,<	-lit	-lit	.	2A/	-lit	-lit	.	2e\	et	Et	.	2cc\	et	Et	.
*	*	*	*	*	*	*	*	*	*	*	*	*	*custos:e	*	*	*	*	*	*	*
!	!	!	!	!	!	!	!	!	!	!	!	!	!LO:LB:g=original	!	!	!	!	!	!	!
=103	=103	=103	=103	=103	=103	=103	=103	=103	=103	=103	=103	=103	=103	=103	=103	=103	=103	=103	=103	=103
*	*	*	*	*	*	*	*	*	*	*ij	*ij	*	*	*	*	*	*	*	*	*
2E\	.	.	.	.	2.E\	suſ-	sus-	.	2.G#X/	suſ-	sus-	.	2.e\	suſ-	sus-	.	2.b\	suſ-	sus-	.
2E\,<	.	.	.	.	.	.	.	.	.	.	.	.	.	.	.	.	.	.	.	.
.	.	.	.	.	4E\	-tu-	-tu-	.	4G#/	-tu-	-tu-	.	4e\	-tu-	-tu-	.	4b\	-tu-	-tu-	.
2A\	.	.	.	.	2A\	-lit	-lit	.	2A/	-lit	-lit	.	2e\	-lit	-lit	.	2cc\	-lit	-lit	.
*	*	*	*	*	*	*	*	*	*	*Xij	*Xij	*	*	*	*	*	*	*	*	*
=104	=104	=104	=104	=104	=104	=104	=104	=104	=104	=104	=104	=104	=104	=104	=104	=104	=104	=104	=104	=104
(2.F\	.	.	.	.	(2.F\	vi-	vi-	.	(2.A/	vi-	vi-	.	(2f\	vi-	vi-	.	(2a\	vi-	vi-	.
!	!	!	!	!	!	!	!	!	!	!	!	!	!LO:SIC:s=2g\	!	!	!	!	!	!	!
.	.	.	.	.	.	.	.	.	.	.	.	.	2g\)	.	.	.	4b\	.	.	.
4E\)	.	.	.	.	4E\	.	.	.	4Gn/	.	.	.	.	.	.	.	4cc\)	.	.	.
!	!	!	!	!	!	!	!	!	!	!	!	!	!LO:SIC:s=2a\)	!	!	!	!	!	!	!
2D/	.	.	.	.	2D/)	.	.	.	2F/)	.	.	.	2a\	.	.	.	(4dd\	-ri-	-ri-	.
!	!	!	!	!	!	!	!	!	!	!	!	!	!	!	!	!	!LO:SIC:s=4cc\	!	!	!
.	.	.	.	.	.	.	.	.	.	.	.	.	.	.	.	.	4cc\)	.	.	.
=105	=105	=105	=105	=105	=105	=105	=105	=105	=105	=105	=105	=105	=105	=105	=105	=105	=105	=105	=105	=105
!	!	!	!	!	!	!	!	!	!	!	!	!	!	!	!	!	!LO:SIC:s=2.b\)	!	!	!
2.E\	.	.	.	.	2.E\	-ri-	-ri-	.	2.G#X/	-ri-	-ri-	.	2.e\	-ri-	-ri-	.	2.b\	-li-	.	.
4E\	.	.	.	.	4E\	-li-	-li-	.	4G#/	-li-	-li-	.	4e\	-li-	-li-	.	4b\	.	-li-	.
2AA/	.	.	.	.	2AA/	-ter.	-ter:	.	2A/	-ter.	-ter:	.	2e\	-ter	-ter:	.	2cc\	-ter:	-ter:	.
!	!	!	!	!	!	!	!	!	!LO:MO:mod==106	!LO:MO:mod==106	!LO:MO:mod==106	!LO:MO:mod==106	!	!	!	!	!LO:MO:mod==106	!LO:MO:mod==106	!LO:MO:mod==106	!LO:MO:mod==106
=106	=106	=106	=106	=106	=106	=106	=106	=106	=106||	=106||	=106||	=106||	=106	=106	=106	=106	=106||	=106||	=106||	=106||
!LO:N:vis=00	!	!	!	!	!LO:N:vis=00	!	!	!	!	!	!	!LO:DY:t=F.	!	!	!	!	!	!	!	!LO:DY:t=F.
00.r	.	.	.	.	00.r	.	.	.	2A\	Fun-	Fun-	f	1.rg	.	.	.	2cc\	Fun-	Fun-	f
!	!	!	!	!	!	!	!	!	!LO:SIC:s=2c\	!	!	!	!	!	!	!	!	!	!	!
.	.	.	.	.	.	.	.	.	2cn\	-dens-	-dens-	.	.	.	.	.	2ee\	-dens-	-dens-	.
.	.	.	.	.	.	.	.	.	2A\	-q(ue)	-q(ue)	.	.	.	.	.	2cc\	-q(ue)	-q(ue)	.
=107	=107	=107	=107	=107	=107	=107	=107	=107	=107	=107	=107	=107	=107	=107	=107	=107	=107	=107	=107	=107
.	.	.	.	.	.	.	.	.	(4e\	pro	pro	.	2e\	fun-	Fun-	.	1b\	pro	pro	.
.	.	.	.	.	.	.	.	.	4d\	.	.	.	.	.	.	.	.	.	.	.
!	!	!	!	!	!	!	!	!	!LO:SIC:s=4e\	!	!	!	!	!	!	!	!	!	!	!
.	.	.	.	.	.	.	.	.	4e\)	.	.	.	2g#X\	-dens-	-dens-	.	.	.	.	.
!	!	!	!	!	!	!	!	!	!LO:SIC:s=4f\)	!	!	!	!	!	!	!	!	!	!	!
.	.	.	.	.	.	.	.	.	4f\	.	.	.	.	.	.	.	.	.	.	.
.	.	.	.	.	.	.	.	.	(4e\	Te	te	.	2e\	-q(ue)	-q(ue)	.	(4cc\	Te	te	.
.	.	.	.	.	.	.	.	.	4d\)	.	.	.	.	.	.	.	4dd\)	.	.	.
=108	=108	=108	=108	=108	=108	=108	=108	=108	=108	=108	=108	=108	=108	=108	=108	=108	=108	=108	=108	=108
!	!	!	!	!	!	!	!	!	!LO:SIC:s=(2.c\	!	!	!	!LO:SIC:s=(2a\	!	!	!	!	!	!	!
.	.	.	.	.	.	.	.	.	(2.cn\	San-	san-	.	2a\	pro	pro	.	(2.ee\	San-	san-	.
.	.	.	.	.	.	.	.	.	.	.	.	.	4e\	.	.	.	.	.	.	.
!	!	!	!	!	!	!	!	!	!	!	!	!	!LO:SIC:s=4d\)	!	!	!	!	!	!	!
.	.	.	.	.	.	.	.	.	4B\	.	.	.	4d\	.	.	.	4dd\	.	.	.
!	!	!	!	!	!	!	!	!	!LO:SIC:s=2A/	!	!	!	!	!	!	!	!	!	!	!
.	.	.	.	.	.	.	.	.	2A/)	.	.	.	(4c\	Te	te	.	4cc\	.	.	.
!	!	!	!	!	!	!	!	!	!	!	!	!	!LO:SIC:s=4g\)	!	!	!	!LO:SIC:s=4b\	!	!	!
.	.	.	.	.	.	.	.	.	.	.	.	.	4a\)	.	.	.	4b\)	.	.	.
=109	=109	=109	=109	=109	=109	=109	=109	=109	=109	=109	=109	=109	=109	=109	=109	=109	=109	=109	=109	=109
!	!	!	!	!	!	!	!	!	!LO:SIC:s=2.d\)	!	!	!	!	!	!	!	!LO:SIC:s=2.a\)	!	!	!
.	.	.	.	.	.	.	.	.	2.d\	.	.	.	2.f#X\	San-	san-	.	2.a\	-gvi-	.	.
.	.	.	.	.	.	.	.	.	4d\	-gvi-	-gui-	.	4f#\	-gvi-	-gui-	.	4a\	.	-gui-	.
.	.	.	.	.	.	.	.	.	2c\	-nem	-nem,	.	2f#\	-nem	-nem,	.	(4b\	-nem	-nem,	.
.	.	.	.	.	.	.	.	.	.	.	.	.	.	.	.	.	4cc\)	.	.	.
!	!	!	!	!	!	!	!	!	!LO:LB:g=original	!	!	!	!	!	!	!	!	!	!	!
=110	=110	=110	=110	=110	=110	=110	=110	=110	=110	=110	=110	=110	=110	=110	=110	=110	=110	=110	=110	=110
!LO:N:vis=00	!	!	!	!	!LO:N:vis=00	!	!	!	!	!	!	!	!	!	!	!	!	!	!	!
00.r	.	.	.	.	00.r	.	.	.	2B\	ae-	Ae-	.	2g\	fun-	Fun-	.	2dd\	fun-	Fun-	.
.	.	.	.	.	.	.	.	.	2G/	-ter-	-ter-	.	2d\	-dens-	-dens-	.	2b\	-dens-	-dens-	.
.	.	.	.	.	.	.	.	.	2B\	-na	-na	.	2g\	-q(ue)	-q(ue)	.	2dd\	-q(ue)	-q(ue)	.
=111	=111	=111	=111	=111	=111	=111	=111	=111	=111	=111	=111	=111	=111	=111	=111	=111	=111	=111	=111	=111
!	!	!	!	!	!	!	!	!	!	!	!	!	!	!	!	!	!LO:SIC:s=(2g/	!	!	!
.	.	.	.	.	.	.	.	.	(2.c\	do-	do-	.	1e\	pro	pro	.	2g/	pro	pro	.
!	!	!	!	!	!	!	!	!	!	!	!	!	!	!	!	!	!LO:SIC:s=4a\	!	!	!
.	.	.	.	.	.	.	.	.	.	.	.	.	.	.	.	.	(4a\	.	.	.
.	.	.	.	.	.	.	.	.	4B\)	.	.	.	.	.	.	.	4b\)	.	.	.
!	!	!	!	!	!	!	!	!	!	!	!	!	!	!	!	!	!LO:SIC:s=(4cc\	!	!	!
.	.	.	.	.	.	.	.	.	2A/	-na	-na	.	(4f#X\	Te	te	.	4cc\	Te	te	.
!	!	!	!	!	!	!	!	!	!	!	!	!	!	!	!	!	!LO:SIC:s=4a\)	!	!	!
.	.	.	.	.	.	.	.	.	.	.	.	.	4e\)	.	.	.	4a\	.	.	.
=112	=112	=112	=112	=112	=112	=112	=112	=112	=112	=112	=112	=112	=112	=112	=112	=112	=112-	=112	=112	=112
.	.	.	.	.	.	.	.	.	1B\	poſ-	pos-	.	1e\	san-	san-	.	1f#X/	san-	san-	.
.	.	.	.	.	.	.	.	.	2BB/	-si-	-si-	.	2d#X\	-gvi-	-gui-	.	2f#/	-gvi-	-gui-	.
=113	=113	=113	=113	=113	=113	=113	=113	=113	=113	=113	=113	=113	=113	=113	=113	=113	=113-	=113	=113	=113
!	!	!	!	!	!	!	!	!	!	!	!	!	!LO:TX:t=P:problem:custos z kasownikiem	!	!	!	!LO:TX:b:t=P:problem=♯ below	!	!	!
.	.	.	.	.	.	.	.	.	1.E/	-det.	-det,	.	1.e\,<	-nem	-nem,	.	1.g#X\	-nem	-nem,	.
*	*	*	*	*	*	*	*	*	*	*	*	*	*custos:dn	*	*	*	*	*	*	*
!	!	!	!	!	!	!	!	!	!	!	!	!	!LO:LB:g=original	!	!	!	!LO:LB:g=original	!	!	!
!	!	!	!	!	!	!	!	!	!LO:MO:mod==114	!LO:MO:mod==114	!LO:MO:mod==114	!LO:MO:mod==114	!LO:MO:mod==114	!LO:MO:mod==114	!LO:MO:mod==114	!LO:MO:mod==114	!	!	!	!
=114	=114	=114	=114	=114	=114	=114	=114	=114	=114||	=114||	=114||	=114||	=114||	=114||	=114||	=114||	=114	=114	=114	=114
!LO:SIC:s=2G\	!	!	!	!	!	!	!	!	!LO:SIC:s=2G/	!	!	!	!	!	!	!	!	!	!	!
2Gn\	.	.	.	.	2G\	Fun-	Fun-	.	2Gn/	Fun-	Fun-	.	2d\	Fun-	Fun-	.	2b\	Fun-	Fun-	.
2G\	.	.	.	.	2G\	-dens-	-dens-	.	2G/	-dens-	-dens-	.	2d\	-dens-	-dens-	.	2b\	-dens-	-dens-	.
2G#X\	.	.	.	.	2G#X\	-q(ue)	-q(ue)	.	2B\	-q(ue)	-q(ue)	.	2e\	-q(ue)	-q(ue)	.	2b\	-q(ue)	-q(ue)	.
=115	=115	=115	=115	=115	=115	=115	=115	=115	=115	=115	=115	=115	=115	=115	=115	=115	=115	=115	=115	=115
2A\	.	.	.	.	2A\	pro	pro	.	2A/	pro	pro	.	1e\	pro	pro	.	2cc\,<	pro	pro	.
!	!	!	!	!	!	!	!	!	!LO:SIC:s=2A/,	!	!	!	!	!	!	!	!	!	!	!
2A\,<	.	.	.	.	2A\,<	Te	te,	.	2A/	Te	te,	.	.	.	.	.	(2cc\	Te	te	.
!	!	!	!	!	!LO:SIC:s=2E\	!	!	!	!	!	!	!	!	!	!	!	!	!	!	!
2E\	.	.	.	.	2En\	fun-	Fun-	.	2G#X/	fun-	Fun-	.	2e\	Te	te,	.	2b\)	.	.	.
=116	=116	=116	=116	=116	=116	=116	=116	=116	=116	=116	=116	=116	=116	=116	=116	=116	=116	=116	=116	=116
!LO:SIC:s=1F\	!	!	!	!	!	!	!	!	!	!	!	!	!LO:SIC:s=2f\	!	!	!	!	!	!	!
1Fn\	.	.	.	.	1F\	-dens-	-dens-	.	(2A\	-dens-	-dens-	.	2fn\	fun-	Fun-	.	(2cc\	San-	san-	.
!	!	!	!	!	!	!	!	!	!	!	!	!	!	!	!	!	!LO:SIC:s=2dd\	!	!	!
.	.	.	.	.	.	.	.	.	2B\)	.	.	.	2g\	-dens-	-dens-	.	2dd\)	.	.	.
!	!	!	!	!	!	!	!	!	!LO:SIC:s=2c\	!	!	!	!	!	!	!	!	!	!	!
2E\	.	.	.	.	2E\	-q(ue)	-q(ue)	.	2cn\	-q(ue)	-q(ue)	.	2g\	-q(ue)	-q(ue)	.	2ee\	.	.	.
=117	=117	=117	=117	=117	=117	=117	=117	=117	=117	=117	=117	=117	=117	=117	=117	=117	=117	=117	=117	=117
!	!	!	!	!	!	!	!	!	!	!	!	!	!LO:SIC:s=(2a\	!	!	!	!	!	!	!
2D\	.	.	.	.	2D/	san-	san-	.	1c\	San-	san-	.	2a\	San-	san-	.	2ff\	.	.	.
!	!	!	!	!	!	!	!	!	!	!	!	!	!LO:SIC:s=2g\)	!	!	!	!LO:SIC:s=2.dd\)	!	!	!
2G\	.	.	.	.	2G\	.	.	.	.	.	.	.	2g\	.	.	.	2.dd\	.	.	.
2GG/	.	.	.	.	2GG/	-gvi-	-gui-	.	2B\	-gvi-	-gui-	.	2g\	-gvi-	-gui-	.	.	.	.	.
.	.	.	.	.	.	.	.	.	.	.	.	.	.	.	.	.	4dd\	-gvi-	-gui-	.
*	*	*	*	*	*custos:C	*	*	*	*	*	*	*	*	*	*	*	*	*	*	*
!	!	!	!	!	!LO:LB:g=original	!	!	!	!	!	!	!	!	!	!	!	!	!	!	!
=118	=118	=118	=118	=118	=118	=118	=118	=118	=118	=118	=118	=118	=118	=118	=118	=118	=118	=118	=118	=118
1.C/,<	.	.	.	.	1.C/,<	-nem.	-nem,	.	1.c\,<	-nem	-nem,	.	1.g\,<	-nem	-nem,	.	1.ee\,<	-nem	-nem,	.
=119	=119	=119	=119	=119	=119	=119	=119	=119	=119	=119	=119	=119	=119	=119	=119	=119	=119	=119	=119	=119
!	!	!	!	!	!	!	!	!	!	!	!	!	!LO:SIC:s=2g\	!	!	!	!	!	!	!
2c\	.	.	.	.	2c\	Ae-	Ae-	.	2c\	ae-	Ae-	.	2gn\	ae-	Ae-	.	2ee\	ae-	Ae-	.
2c\	.	.	.	.	2c\	-ter-	-ter-	.	2c\	-ter-	-ter-	.	2a\	-ter-	-ter-	.	2ee\	-ter-	-ter-	.
!LO:SIC:s=2B\	!	!	!	!	!LO:SIC:s=2B\	!	!	!	!	!	!	!	!	!	!	!	!	!	!	!
2Bn\	.	.	.	.	2Bn\	-na	-na	.	2d\	-na	-na	.	2g#X\	-na	-na	.	2dd\	-na	-na	.
=120	=120	=120	=120	=120	=120	=120	=120	=120	=120	=120	=120	=120	=120	=120	=120	=120	=120	=120	=120	=120
!	!	!	!	!	!	!	!	!	!LO:SIC:s=(2e\	!	!	!	!	!	!	!	!LO:SIC:s=1cc\	!	!	!
1A\	.	.	.	.	1A\	do-	do-	.	2e\	do-	do-	.	(2a\	do-	do-	.	1ccn\	do-	do-	.
!	!	!	!	!	!	!	!	!	!LO:SIC:s=2A/)	!	!	!	!	!	!	!	!	!	!	!
.	.	.	.	.	.	.	.	.	2A/	.	.	.	2e\)	.	.	.	.	.	.	.
2E\	.	.	.	.	2E\	-na	-na,	.	2G#X/	-na	-na,	.	2e\	-na	-na,	.	2b\,<	-na	-na,	.
!	!	!	!	!	!	!	!	!	!LO:LB:g=original	!	!	!	!	!	!	!	!	!	!	!
=121	=121	=121	=121	=121	=121	=121	=121	=121	=121	=121	=121	=121	=121	=121	=121	=121	=121	=121	=121	=121
*	*	*	*	*	*	*ij	*ij	*	*	*	*	*	*	*	*	*	*	*	*	*
2A\	.	.	.	.	2A\	Ae-	Ae-	.	2A\	ae-	Ae-	.	2e\	ae-	Ae-	.	2cc\	ae-	Ae-	.
2A\	.	.	.	.	2A\	-ter-	-ter-	.	2A\	-ter-	-ter-	.	2e\	-ter-	-ter-	.	2cc\	-ter-	-ter-	.
!LO:SIC:s=2G\	!	!	!	!	!LO:SIC:s=2G\	!	!	!	!LO:SIC:s=2B\	!	!	!	!	!	!	!	!	!	!	!
2Gn\	.	.	.	.	2Gn\	-na	-na	.	2Bn\	-na	-na	.	2e\	-na	-na	.	2b\	-na	-na	.
=122	=122	=122	=122	=122	=122	=122	=122	=122	=122	=122	=122	=122	=122	=122	=122	=122	=122	=122	=122	=122
!	!	!	!	!	!	!	!	!	!LO:SIC:s=(2A\	!	!	!	!	!	!	!	!	!	!	!
(2.F\	.	.	.	.	(2.F\	do-	do-	.	2A\	do-	do-	.	(2.f\	do-	do-	.	(2.a\	do-	do-	.
.	.	.	.	.	.	.	.	.	4B\	.	.	.	.	.	.	.	.	.	.	.
4E\)	.	.	.	.	4E\)	.	.	.	4c\	.	.	.	4g\)	.	.	.	4b\)	.	.	.
!	!	!	!	!	!	!	!	!	!LO:SIC:s=4d\	!	!	!	!	!	!	!	!	!	!	!
2D\	.	.	.	.	2D/	-na	-na	.	(4d\	.	.	.	2a\	-na	-na	.	2cc\	-na	-na	.
*	*	*	*	*	*	*Xij	*Xij	*	*	*	*	*	*	*	*	*	*	*	*	*
!	!	!	!	!	!	!	!	!	!LO:SIC:s=4A\	!	!	!	!	!	!	!	!	!	!	!
.	.	.	.	.	.	.	.	.	4A\)	.	.	.	.	.	.	.	.	.	.	.
=123	=123	=123	=123	=123	=123	=123	=123	=123	=123	=123	=123	=123	=123	=123	=123	=123	=123	=123	=123	=123
!	!	!	!	!	!	!	!	!	!LO:SIC:s=1G#X/)	!	!	!	!LO:SIC:s=[1.e\	!	!	!	!	!	!	!
[<1.E\	.	.	.	.	[<1.E\	poſ-	pos-	.	1G#X/	.	.	.	1.e\	poſ-	pos-	.	(1b\	poſ-	pos-	.
!	!	!	!	!	!	!	!	!	!	!	!	!	!	!	!	!	!LO:SIC:s=2cc\	!	!	!
.	.	.	.	.	.	.	.	.	2A/,<	-na	-na	.	.	.	.	.	2cc\)	.	.	.
=124	=124	=124	=124	=124	=124	=124	=124	=124	=124	=124	=124	=124	=124	=124	=124	=124	=124	=124	=124	=124
!	!	!	!	!	!	!	!	!	!	!	!	!	!LO:SIC:s=1e\]	!	!	!	!LO:SIC:s=1b\)	!	!	!
1E\]	.	.	.	.	1E\]	.	.	.	1A\	poſ-	pos-	.	1e\	.	.	.	1b\	.	.	.
2E\	.	.	.	.	2E\	-si-	-si-	.	2G#X/	-si-	-si-	.	2e\	-si-	-si-	.	2b\	-si-	-si-	.
=125	=125	=125	=125	=125	=125	=125	=125	=125	=125	=125	=125	=125	=125	=125	=125	=125	=125	=125	=125	=125
!	!	!	!	!	!LO:N:vis=1.	!	!	!	!	!	!	!	!	!	!	!	!	!	!	!
0.AA/;	.	.	.	.	0.AA/;	-det.	-det.	.	0.A\;	-det.	-det.	.	0.e\;	-det.	-det.	.	0.cc#X\	-det.	-det.	.
!	!	!	!	!	!	!	!	!	!	!	!	!	!LO:LB:g=original	!	!	!	!LO:LB:g=original	!	!	!
=126||	=126||	=126||	=126||	=126||	=126||	=126||	=126||	=126||	=126||	=126||	=126||	=126||	=126||	=126||	=126||	=126||	=126||	=126||	=126||	=126||
*M2/2	*	*	*	*	*M2/2	*	*	*	*M2/2	*	*	*	*M2/2	*	*	*	*M2/2	*	*	*
*met(C|)	*	*	*	*	*met(C|)	*	*	*	*met(C|)	*	*	*	*met(C|)	*	*	*	*met(C|)	*	*	*
*mmet(C|)	*	*	*	*	*mmet(C|)	*	*	*	*mmet(C|)	*	*	*	*mmet(C|)	*	*	*	*mmet(C|)	*	*	*
00r	.	.	.	.	00r	.	.	.	00r	.	.	.	00r	.	.	.	1g\	Ob	Ob	.
=127	=127	=127	=127	=127	=127	=127	=127	=127	=127	=127	=127	=127	=127	=127	=127	=127	=127	=127	=127	=127
.	.	.	.	.	.	.	.	.	.	.	.	.	.	.	.	.	2.cc\	hoc	hoc	.
!	!	!	!	!	!	!	!	!	!	!	!	!	!	!	!	!	!LO:SIC:s=8dd\L	!	!	!
.	.	.	.	.	.	.	.	.	.	.	.	.	.	.	.	.	(8dd\L	pre-	pre-	.
!	!	!	!	!	!	!	!	!	!	!	!	!	!	!	!	!	!LO:SIC:s=8cc\J	!	!	!
.	.	.	.	.	.	.	.	.	.	.	.	.	.	.	.	.	8cc\J)	.	.	.
=128	=128	=128	=128	=128	=128	=128	=128	=128	=128	=128	=128	=128	=128	=128	=128	=128	=128	=128	=128	=128
.	.	.	.	.	.	.	.	.	.	.	.	.	.	.	.	.	2b\	-ca-	-ca-	.
.	.	.	.	.	.	.	.	.	.	.	.	.	.	.	.	.	2g\	-tu	-tu	.
=129	=129	=129	=129	=129	=129	=129	=129	=129	=129	=129	=129	=129	=129	=129	=129	=129	=129	=129	=129	=129
.	.	.	.	.	.	.	.	.	.	.	.	.	.	.	.	.	(2a\	sup-	sup-	.
!	!	!	!	!	!	!	!	!	!	!	!	!	!	!	!	!	!LO:SIC:s=2b\	!	!	!
.	.	.	.	.	.	.	.	.	.	.	.	.	.	.	.	.	2b\)	.	.	.
=130	=130	=130	=130	=130	=130	=130	=130	=130	=130	=130	=130	=130	=130	=130	=130	=130	=130	=130	=130	=130
00r	.	.	.	.	00r	.	.	.	00r	.	.	.	1c\	Ob	Ob	.	2.cc\	.	.	.
.	.	.	.	.	.	.	.	.	.	.	.	.	.	.	.	.	4b\	.	.	.
=131	=131	=131	=131	=131	=131	=131	=131	=131	=131	=131	=131	=131	=131	=131	=131	=131	=131	=131	=131	=131
!	!	!	!	!	!	!	!	!	!	!	!	!	!	!	!	!	!LO:SIC:s=2.a\)	!	!	!
.	.	.	.	.	.	.	.	.	.	.	.	.	2.f\	hoc	hoc	.	2.a\	.	.	.
!	!	!	!	!	!	!	!	!	!	!	!	!	!LO:SIC:s=8g\L	!	!	!	!	!	!	!
.	.	.	.	.	.	.	.	.	.	.	.	.	(8g\L	pre-	pre-	.	4a\	-pli-	-pli-	.
!	!	!	!	!	!	!	!	!	!	!	!	!	!LO:SIC:s=8f\J	!	!	!	!	!	!	!
.	.	.	.	.	.	.	.	.	.	.	.	.	8f\J)	.	.	.	.	.	.	.
=132	=132	=132	=132	=132	=132	=132	=132	=132	=132	=132	=132	=132	=132	=132	=132	=132	=132	=132	=132	=132
.	.	.	.	.	.	.	.	.	.	.	.	.	2e\	-ca-	-ca-	.	2g/,<	-ci	-ci,	.
.	.	.	.	.	.	.	.	.	.	.	.	.	2c/	-tu	-tu,	.	2a\	ob	Ob	.
=133	=133	=133	=133	=133	=133	=133	=133	=133	=133	=133	=133	=133	=133	=133	=133	=133	=133	=133	=133	=133
.	.	.	.	.	.	.	.	.	.	.	.	.	2d\	pre-	pre-	.	2b\	hoc	hoc	.
.	.	.	.	.	.	.	.	.	.	.	.	.	2e\	-ca-	-ca-	.	2cc\	pre-	pre-	.
=134	=134	=134	=134	=134	=134	=134	=134	=134	=134	=134	=134	=134	=134	=134	=134	=134	=134	=134	=134	=134
!	!	!	!	!	!	!	!	!	!	!	!	!	!LO:SIC:s=(2.f\	!	!	!	!	!	!	!
00r	.	.	.	.	00r	.	.	.	1r	.	.	.	2.f\	-tu	-tu	.	(4a\	-ca-	-ca-	.
.	.	.	.	.	.	.	.	.	.	.	.	.	.	.	.	.	4b\)	.	.	.
.	.	.	.	.	.	.	.	.	.	.	.	.	.	.	.	.	(4cc\	-tu	-tu	.
!	!	!	!	!	!	!	!	!	!	!	!	!	!LO:SIC:s=4e\)	!	!	!	!	!	!	!
.	.	.	.	.	.	.	.	.	.	.	.	.	4e\	.	.	.	4a\)	.	.	.
=135	=135	=135	=135	=135	=135	=135	=135	=135	=135	=135	=135	=135	=135	=135	=135	=135	=135	=135	=135	=135
!	!	!	!	!	!	!	!	!	!LO:SIC:s=1G/	!	!	!	!	!	!	!	!	!	!	!
.	.	.	.	.	.	.	.	.	1Gni/	Ob	Ob	.	2.d\	sup-	sup-	.	2b\	sup-	sup-	.
.	.	.	.	.	.	.	.	.	.	.	.	.	.	.	.	.	2b\	-pli-	-pli-	.
.	.	.	.	.	.	.	.	.	.	.	.	.	4d\	-pli-	-pli-	.	.	.	.	.
=136	=136	=136	=136	=136	=136	=136	=136	=136	=136	=136	=136	=136	=136	=136	=136	=136	=136	=136	=136	=136
.	.	.	.	.	.	.	.	.	2.c\	hoc	hoc	.	2c\,<	-ci	-ci,	.	2cc\,<	-ci	-ci,	.
.	.	.	.	.	.	.	.	.	.	.	.	.	2e\	ob	Ob	.	2g/	pre-	pre-	.
.	.	.	.	.	.	.	.	.	8d\L	pre-	pre-	.	.	.	.	.	.	.	.	.
.	.	.	.	.	.	.	.	.	8c\J	.	.	.	.	.	.	.	.	.	.	.
=137	=137	=137	=137	=137	=137	=137	=137	=137	=137	=137	=137	=137	=137	=137	=137	=137	=137	=137	=137	=137
.	.	.	.	.	.	.	.	.	2B\	-ca-	-ca-	.	2d\	hoc	hoc	.	2g/	-ca-	-ca-	.
.	.	.	.	.	.	.	.	.	2G/,<	-tu	-tu	.	2B/	pre-	pre-	.	2g/	-tu	-tu	.
=138	=138	=138	=138	=138	=138	=138	=138	=138	=138	=138	=138	=138	=138	=138	=138	=138	=138	=138	=138	=138
1r	.	.	.	.	1r	.	.	.	(2A\	sup-	sup-	.	(2c/	-ca-	-ca-	.	2f/	sup-	sup-	.
!	!	!	!	!	!	!	!	!	!LO:SIC:s=2B\	!	!	!	!	!	!	!	!	!	!	!
.	.	.	.	.	.	.	.	.	2B\)	.	.	.	2d/)	.	.	.	2d/,<	-pli-	-pli-	.
=139	=139	=139	=139	=139	=139	=139	=139	=139	=139	=139	=139	=139	=139	=139	=139	=139	=139	=139	=139	=139
1C/	.	.	.	.	1C/	Ob	Ob	.	2.c\	.	.	.	2G/,<	-tu	-tu,	.	1e/	-ci.	-ci	.
.	.	.	.	.	.	.	.	.	.	.	.	.	2g\	ob	Ob	.	.	.	.	.
.	.	.	.	.	.	.	.	.	4B\	.	.	.	.	.	.	.	.	.	.	.
=140	=140	=140	=140	=140	=140	=140	=140	=140	=140	=140	=140	=140	=140	=140	=140	=140	=140	=140	=140	=140
!	!	!	!	!	!	!	!	!	!LO:SIC:s=2.A/)	!	!	!	!	!	!	!	!	!	!	!
2.F\	.	.	.	.	2.F\	hoc	hoc	.	2.A/	.	.	.	2.c/	hoc	hoc	.	00r	.	.	.
!	!	!	!	!	!	!	!	!	!	!	!	!	!LO:SIC:s=(4d\	!	!	!	!	!	!	!
8G\L	.	.	.	.	8G\L	pre-	pre-	.	4A/	-pli-	-pli-	.	4d\	pre-	pre-	.	.	.	.	.
8F\J	.	.	.	.	8F\J	.	.	.	.	.	.	.	.	.	.	.	.	.	.	.
=141	=141	=141	=141	=141	=141	=141	=141	=141	=141	=141	=141	=141	=141	=141	=141	=141	=141	=141	=141	=141
!	!	!	!	!	!	!	!	!	!	!	!	!	!LO:SIC:s=2e\)	!	!	!	!	!	!	!
2E\	.	.	.	.	2E\	-ca-	-ca-	.	2G/,<	-ci	-ci,	.	2e\	.	.	.	.	.	.	.
2C/,<	.	.	.	.	2C/	-tu	-tu	.	2c\	ob	Ob	.	2e\	-ca-	-ca-	.	.	.	.	.
*	*	*	*	*	*	*	*	*	*custos:A	*	*	*	*	*	*	*	*	*	*	*
!	!	!	!	!	!LO:LB:g=original	!	!	!	!LO:LB:g=original	!	!	!	!	!	!	!	!	!	!	!
=142	=142	=142	=142	=142	=142	=142	=142	=142	=142	=142	=142	=142	=142	=142	=142	=142	=142	=142	=142	=142
2D\	.	.	.	.	(2D\	sup-	sup-	.	2A/	hoc	hoc	.	2f\	-tu	-tu	.	.	.	.	.
!	!	!	!	!	!LO:SIC:s=2E\	!	!	!	!	!	!	!	!LO:SIC:s=(4e\	!	!	!	!	!	!	!
2E\	.	.	.	.	2E\)	.	.	.	2G/	pre-	pre-	.	4e\	sup-	sup-	.	.	.	.	.
.	.	.	.	.	.	.	.	.	.	.	.	.	4d\	.	.	.	.	.	.	.
*	*	*	*	*	*	*	*	*	*	*	*	*	*custos:c	*	*	*	*	*	*	*
!	!	!	!	!	!	!	!	!	!	!	!	!	!LO:LB:g=original	!	!	!	!	!	!	!
=143	=143	=143	=143	=143	=143	=143	=143	=143	=143	=143	=143	=143	=143	=143	=143	=143	=143	=143	=143	=143
(2.F\	.	.	.	.	2.F\	.	.	.	2.A/	-ca-	-ca-	.	2.c/	.	.	.	.	.	.	.
4E\)	.	.	.	.	4E\	.	.	.	4G/,<	-tu	-tu	.	8d/L	.	.	.	.	.	.	.
.	.	.	.	.	.	.	.	.	.	.	.	.	8e/J	.	.	.	.	.	.	.
=144	=144	=144	=144	=144	=144	=144	=144	=144	=144	=144	=144	=144	=144	=144	=144	=144	=144	=144	=144	=144
!	!	!	!	!	!LO:SIC:s=2.D/)	!	!	!	!	!	!	!	!LO:SIC:s=2f\)	!	!	!	!	!	!	!
2D/	.	.	.	.	2.D/	.	.	.	2A\	sup-	sup-	.	2f\	.	.	.	1r	.	.	.
2D/	.	.	.	.	.	.	.	.	2B\	-pli-	-pli-	.	2f\	-pli-	-pli-	.	.	.	.	.
.	.	.	.	.	4D/	-pli-	-pli-	.	.	.	.	.	.	.	.	.	.	.	.	.
*	*	*	*	*	*	*	*	*	*	*	*	*	*	*	*	*	*custos:cc	*	*	*
!	!	!	!	!	!	!	!	!	!	!	!	!	!	!	!	!	!LO:LB:g=original	!	!	!
=145	=145	=145	=145	=145	=145	=145	=145	=145	=145	=145	=145	=145	=145	=145	=145	=145	=145	=145	=145	=145
2C/,<	.	.	.	.	2C/,<	-ci,	-ci	.	1c\,<	-ci.	-ci	.	2e\,<	-ci	-ci	.	2r	.	.	.
2E\	.	.	.	.	2E\	Te	Te	.	.	.	.	.	2g\	Te	Te	.	(4cc\	Te	Te	.
.	.	.	.	.	.	.	.	.	.	.	.	.	.	.	.	.	4b\)	.	.	.
=146	=146	=146	=146	=146	=146	=146	=146	=146	=146	=146	=146	=146	=146	=146	=146	=146	=146	=146	=146	=146
!	!	!	!	!	!	!	!	!	!	!	!	!	!LO:SIC:s=2f\	!	!	!	!	!	!	!
(4F\	.	.	.	.	(4F\	poſ-	pos-	.	2r	.	.	.	2fn\	pos-	pos-	.	(4a\	pos-	pos-	.
4G\)	.	.	.	.	4G\)	.	.	.	.	.	.	.	.	.	.	.	4b\)	.	.	.
(4A\	.	.	.	.	(4A\	-ci-	-ci-	.	2c\	Te	Te	.	(4e\	-ci-	-ci-	.	(4cc\	-ci-	-ci-	.
4F\)	.	.	.	.	4F\)	.	.	.	.	.	.	.	4f\)	.	.	.	4a\)	.	.	.
=147	=147	=147	=147	=147	=147	=147	=147	=147	=147	=147	=147	=147	=147	=147	=147	=147	=147	=147	=147	=147
!	!	!	!	!	!	!	!	!	!LO:SIC:s=2B\	!	!	!	!	!	!	!	!	!	!	!
2G\,<	.	.	.	.	2G\,<	-mus	-mus	.	2Bn\	poſ-	pos-	.	2d\,<	-mus	-mus,	.	2b\,<	-mus	-mus	.
2G\	.	.	.	.	2G\	Pi-	pi-	.	2G/	-ci-	-ci-	.	2d\	Te	Te	.	2b\	Pi-	pi-	.
=148	=148	=148	=148	=148	=148	=148	=148	=148	=148	=148	=148	=148	=148	=148	=148	=148	=148	=148	=148	=148
2C/	.	.	.	.	2C/	-jſ-	-is-	.	2G/,<	-mus	-mus	.	2e\	pos-	pos-	.	2cc\	-iſ-	-is-	.
2D/	.	.	.	.	2D/	-si-	-si-	.	2d\	Pi-	pi-	.	2f#X\	-ci-	-ci-	.	2a\	-si-	-si-	.
=149	=149	=149	=149	=149	=149	=149	=149	=149	=149	=149	=149	=149	=149	=149	=149	=149	=149	=149	=149	=149
!	!	!	!	!	!	!	!	!	!LO:SIC:s=(2B\	!	!	!	!	!	!	!	!	!	!	!
2GG/,<	.	.	.	.	2G\,<	-me;	-me:	.	2Bn\	-jſ-	-is-	.	2d\,<	-mus	-mus	.	1g\,<	-me	-me:	.
2C/	.	.	.	.	2C/	in	In	.	[<2c\	.	.	.	2e\	pi-	pi-	.	.	.	.	.
=150	=150	=150	=150	=150	=150	=150	=150	=150	=150	=150	=150	=150	=150	=150	=150	=150	=150	=150	=150	=150
!	!	!	!	!	!	!	!	!	!LO:SIC:s=2c\])	!	!	!	!LO:SIC:s=2f\	!	!	!	!	!	!	!
2F\	.	.	.	.	2F\	hoc	hoc	.	2c\]	.	.	.	2fn\	-jſ-	-is-	.	2r	.	.	.
2G\	.	.	.	.	2G\	Tri-	tri-	.	2B\	-si-	-si-	.	2d\	-si-	-si-	.	2g\	in	In	.
=151	=151	=151	=151	=151	=151	=151	=151	=151	=151	=151	=151	=151	=151	=151	=151	=151	=151	=151	=151	=151
2.C/	.	.	.	.	2.C/	-um-	-um-	.	2c\,<	-me	-me:	.	1e\,<	-me	-me:	.	2.cc\	hoc	hoc	.
.	.	.	.	.	.	.	.	.	2G/	in	In	.	.	.	.	.	.	.	.	.
4C/	.	.	.	.	4C/	-pho	-pho	.	.	.	.	.	.	.	.	.	8dd\L	tri-	tri-	.
.	.	.	.	.	.	.	.	.	.	.	.	.	.	.	.	.	8cc\J	.	.	.
=152	=152	=152	=152	=152	=152	=152	=152	=152	=152	=152	=152	=152	=152	=152	=152	=152	=152	=152	=152	=152
!	!	!	!	!	!LO:SIC:s=(2GG/	!	!	!	!	!	!	!	!	!	!	!	!	!	!	!
2GG/	.	.	.	.	2GG/,<	mar-	Mar-	.	2.G/	hoc	hoc	.	2r	.	.	.	2b\	-um-	-um-	.
1C	.	.	.	.	1C	.	.	.	.	.	.	.	2e\	in	In	.	2g/,<	-pho	-pho	.
.	.	.	.	.	.	.	.	.	4F/	tri-	tri-	.	.	.	.	.	.	.	.	.
=153	=153	=153	=153	=153	=153-	=153	=153	=153	=153	=153	=153	=153	=153	=153	=153	=153	=153	=153	=153	=153
.	.	.	.	.	.	.	.	.	2E/	-um-	-um-	.	2c/	hoc	hoc	.	(2a\	Mar-	Mar-	.
!	!	!	!	!	!	!	!	!	!	!	!	!	!	!	!	!	!LO:SIC:s=2b\	!	!	!
2BB/	.	.	.	.	2BB/	.	.	.	2G/	-pho	-pho	.	2d/	Tri-	tri-	.	2b\)	.	.	.
=154	=154	=154	=154	=154	=154	=154	=154	=154	=154	=154	=154	=154	=154	=154	=154	=154	=154	=154	=154	=154
!	!	!	!	!	!LO:SIC:s=2.AA/)	!	!	!	!	!	!	!	!	!	!	!	!LO:SIC:s=2.cc\)	!	!	!
2.AA/	.	.	.	.	2.AA/	.	.	.	2G/	Mar-	Mar-	.	2c/	-um-	-um-	.	2.cc\	.	.	.
.	.	.	.	.	.	.	.	.	2F#X/	-ty-	-ty-	.	2A/	-pho	-pho	.	.	.	.	.
4AA/	.	.	.	.	4AA/	-ty-	-ty-	.	.	.	.	.	.	.	.	.	4cc\	-ty-	-ty-	.
*	*	*	*	*	*custos:GG	*	*	*	*	*	*	*	*	*	*	*	*	*	*	*
!	!	!	!	!	!LO:LB:g=original	!	!	!	!	!	!	!	!	!	!	!	!	!	!	!
=155	=155	=155	=155	=155	=155	=155	=155	=155	=155	=155	=155	=155	=155	=155	=155	=155	=155	=155	=155	=155
2GG/,<	.	.	.	.	2GG/,<	-ris,	-ris,	.	1G/,<	-ris	-ris,	.	(2d\	Mar-	Mar-	.	2b\,<	-ris	-ris,	.
!	!	!	!	!	!	!	!	!	!	!	!	!	!LO:SIC:s=2g\	!	!	!	!	!	!	!
2G\	.	.	.	.	2G\	Tri-	tri-	.	.	.	.	.	2g\)	.	.	.	2b\	Tri-	tri-	.
!	!	!	!	!	!	!	!	!	!LO:LB:g=original	!	!	!	!LO:LB:g=original	!	!	!	!	!	!	!
=156	=156	=156	=156	=156	=156	=156	=156	=156	=156	=156	=156	=156	=156	=156	=156	=156	=156	=156	=156	=156
(4A\	.	.	.	.	(4A\	-um-	-um-	.	2r	.	.	.	2.e\	.	.	.	(4cc\	-um-	-um-	.
4G\)	.	.	.	.	4G\)	.	.	.	.	.	.	.	.	.	.	.	4b\)	.	.	.
!	!	!	!	!	!	!	!	!	!LO:SIC:s=(2c\	!	!	!	!	!	!	!	!	!	!	!
(4A\	.	.	.	.	(4A\	-pho	-pho	.	2c\	Mar-	Mar-	.	.	.	.	.	(4cc\	-pho	-pho	.
4F\)	.	.	.	.	4F\)	.	.	.	.	.	.	.	4f\	.	.	.	4a\)	.	.	.
=157	=157	=157	=157	=157	=157	=157	=157	=157	=157	=157	=157	=157	=157	=157	=157	=157	=157	=157	=157	=157
!	!	!	!	!	!LO:SIC:s=(2G\	!	!	!	!LO:SIC:s=2B\	!	!	!	!	!	!	!	!	!	!	!
2G\	.	.	.	.	2G\	Mar-	Mar-	.	(2B\	.	.	.	2d\	.	.	.	(2b\	Mar-	Mar-	.
!	!	!	!	!	!	!	!	!	!LO:SIC:s=2e\	!	!	!	!LO:MO:mod=[2g/	!	!	!	!LO:SIC:s=2cc\	!	!	!
2C/	.	.	.	.	2C/	.	.	.	2e\)	.	.	.	1g	.	.	.	2cc\)	.	.	.
=158	=158	=158	=158	=158	=158	=158	=158	=158	=158	=158	=158	=158	=158-	=158	=158	=158	=158	=158	=158	=158
!	!	!	!	!	!LO:SIC:s=2.D\)	!	!	!	!LO:SIC:s=2.d\)	!	!	!	!LO:MO:null:mod=2g/])	!	!	!	!LO:SIC:s=2.a\)	!	!	!
2.D\	.	.	.	.	2.D\	.	.	.	2.d\	.	.	.	.	.	.	.	2.a\	.	.	.
.	.	.	.	.	.	.	.	.	.	.	.	.	2f#X\	-ty-	-ty-	.	.	.	.	.
4D\	.	.	.	.	4D\	-ty-	-ty-	.	4d\	-ty-	-ty-	.	.	.	.	.	4a\	-ty-	-ty-	.
*	*	*	*	*	*	*	*	*	*	*	*	*	*	*	*	*	*custos:b	*	*	*
!	!	!	!	!	!	!	!	!	!	!	!	!	!	!	!	!	!LO:LB:g=original	!	!	!
=159	=159	=159	=159	=159	=159	=159	=159	=159	=159	=159	=159	=159	=159	=159	=159	=159	=159	=159	=159	=159
2GG/	.	.	.	.	2GG/	-ris.	-ris,	.	2d\,<	-ris	-ris,	.	2g\,<	-ris	-ris,	.	2b\,<	-ris	-ris,	.
2rBB	.	.	.	.	2rBB	.	.	.	2G/	di-	Di-	.	2g\	di-	Di-	.	2b\	di-	Di-	.
=160	=160	=160	=160	=160	=160	=160	=160	=160	=160	=160	=160	=160	=160	=160	=160	=160	=160	=160	=160	=160
00r	.	.	.	.	00r	.	.	.	2A/	-mit-	-mit-	.	2f#X\	-mit-	-mit-	.	2cc\	-mit-	-mit-	.
.	.	.	.	.	.	.	.	.	2B/	-te	-te	.	2g\	-te	-te	.	2dd\	-te	-te	.
=161	=161	=161	=161	=161	=161	=161	=161	=161	=161	=161	=161	=161	=161	=161	=161	=161	=161	=161	=161	=161
.	.	.	.	.	.	.	.	.	(2c\	no-	no-	.	2g\	no-	no-	.	2ee\	no-	no-	.
.	.	.	.	.	.	.	.	.	2A/)	.	.	.	2f#X\	-xam	-xam	.	2cc\,<	-xam	-xam	.
=162	=162	=162	=162	=162	=162	=162	=162	=162	=162	=162	=162	=162	=162	=162	=162	=162	=162	=162	=162	=162
.	.	.	.	.	.	.	.	.	2G/,<	-xam	-xam	.	1.g\	Ser-	ser-	.	(2dd\	Ser-	ser-	.
!	!	!	!	!	!	!	!	!	!LO:SIC:s=(2c\	!	!	!	!	!	!	!	!	!	!	!
.	.	.	.	.	.	.	.	.	2c\	Ser-	ser-	.	.	.	.	.	4cc\	.	.	.
!	!	!	!	!	!	!	!	!	!	!	!	!	!	!	!	!	!LO:SIC:s=4b\	!	!	!
.	.	.	.	.	.	.	.	.	.	.	.	.	.	.	.	.	4b\)	.	.	.
=163	=163	=163	=163	=163	=163	=163	=163	=163	=163	=163	=163	=163	=163-	=163	=163	=163	=163	=163	=163	=163
!	!	!	!	!	!	!	!	!	!LO:SIC:s=2.d\)	!	!	!	!	!	!	!	!LO:SIC:s=2.a\)	!	!	!
.	.	.	.	.	.	.	.	.	2.d\	.	.	.	.	.	.	.	2.a\	.	.	.
.	.	.	.	.	.	.	.	.	.	.	.	.	2f#X\	-vu-	-vu-	.	.	.	.	.
.	.	.	.	.	.	.	.	.	4D/	-vu-	-vu-	.	.	.	.	.	4a\	-vu-	-vu-	.
=164	=164	=164	=164	=164	=164	=164	=164	=164	=164	=164	=164	=164	=164	=164	=164	=164	=164	=164	=164	=164
2rBB	.	.	.	.	2rBB	.	.	.	2G/,<	-lis	-lis,	.	2g\,<	-lis	-lis,	.	2b\,<	-lis	-lis,	.
2C/	.	.	.	.	2C/	di-	Di-	.	2e\	di-	Di-	.	2g\	di-	Di-	.	2cc\	di-	Di-	.
=165	=165	=165	=165	=165	=165	=165	=165	=165	=165	=165	=165	=165	=165	=165	=165	=165	=165	=165	=165	=165
!	!	!	!	!	!	!	!	!	!	!	!	!	!LO:SIC:s=2f\	!	!	!	!	!	!	!
2D\	.	.	.	.	2D\	-mit-	-mit-	.	2d\	-mit-	-mit-	.	2fn\	-mit-	-mit-	.	2b\	-mit-	-mit-	.
2E\	.	.	.	.	2E\,<	-te	-te	.	2c\,<	-te	-te	.	2g\	-te	-te	.	2ee\	-te	-te	.
=166	=166	=166	=166	=166	=166	=166	=166	=166	=166	=166	=166	=166	=166	=166	=166	=166	=166	=166	=166	=166
!	!	!	!	!	!	!	!	!	!	!	!	!	!LO:SIC:s=(2a\	!	!	!	!LO:SIC:s=(2cc\	!	!	!
2F\	.	.	.	.	2F\	no-	no-	.	2c\	no-	no-	.	2a\	no-	no-	.	2cc\	no-	no-	.
!	!	!	!	!	!	!	!	!	!LO:SIC:s=2B\	!	!	!	!LO:SIC:s=2f\)	!	!	!	!LO:SIC:s=2dd\)	!	!	!
2D/	.	.	.	.	2D/,<	-xam	-xam	.	2Bn\	-xam	-xam	.	2fn\	.	.	.	2dd\	.	.	.
=167	=167	=167	=167	=167	=167	=167	=167	=167	=167	=167	=167	=167	=167	=167	=167	=167	=167	=167	=167	=167
!	!	!	!	!	!	!	!	!	!LO:SIC:s=(2c\	!	!	!	!	!	!	!	!	!	!	!
2C/	.	.	.	.	(2C/	Ser-	ser-	.	2c\	Ser-	ser-	.	2g\	-xam	-xam	.	2ee\	-xam	-xam	.
!	!	!	!	!	!LO:SIC:s=2F\	!	!	!	!	!	!	!	!LO:SIC:s=(4f\	!	!	!	!	!	!	!
2F\	.	.	.	.	2F\)	.	.	.	2A/	.	.	.	4f\	Ser-	ser-	.	1cc	Ser-	ser-	.
.	.	.	.	.	.	.	.	.	.	.	.	.	4e\	.	.	.	.	.	.	.
=168	=168	=168	=168	=168	=168	=168	=168	=168	=168	=168	=168	=168	=168	=168	=168	=168	=168-	=168	=168	=168
!	!	!	!	!	!LO:SIC:s=2.G\)	!	!	!	!LO:SIC:s=2.G/)	!	!	!	!LO:SIC:s=2.d\)	!	!	!	!	!	!	!
2.G\	.	.	.	.	2.G\	.	.	.	2.G/	.	.	.	2.d\	.	.	.	.	.	.	.
.	.	.	.	.	.	.	.	.	.	.	.	.	.	.	.	.	2b\	-vu-	-vu-	.
4GG/	.	.	.	.	4GG/	-vu-	-vu-	.	4G/	-vu-	-vu-	.	4d\	-vu-	-vu-	.	.	.	.	.
=169	=169	=169	=169	=169	=169	=169	=169	=169	=169	=169	=169	=169	=169	=169	=169	=169	=169	=169	=169	=169
2C/,<	.	.	.	.	2C/,<	-lis	-lis,	.	2G/,<	-lis,	-lis,	.	2e\,<	-lis	-lis,	.	2cc\,<	-lis.	-lis,	.
2c\	.	.	.	.	2c\	di-	Di-	.	2c\	di-	Di-	.	2e\	di-	Di-	.	2rb	.	.	.
*	*	*	*	*	*	*	*	*	*custos:d	*	*	*	*custos:f	*	*	*	*	*	*	*
!	!	!	!	!	!	!	!	!	!LO:LB:g=original	!	!	!	!LO:LB:g=original	!	!	!	!	!	!	!
=170	=170	=170	=170	=170	=170	=170	=170	=170	=170	=170	=170	=170	=170	=170	=170	=170	=170	=170	=170	=170
!LO:SIC:s=2B\	!	!	!	!	!LO:SIC:s=(2B\	!	!	!	!	!	!	!	!LO:SIC:s=(2f\	!	!	!	!	!	!	!LO:DY:b
2Bn\	.	.	.	.	2Bn\	-mit-	-mit-	.	(2d\	-mit-	-mit-	.	2f\	-mit-	-mit-	.	1gg\	di-	Di-	f
!	!	!	!	!	!LO:SIC:s=2c\)	!	!	!	!	!	!	!	!LO:MO:mod=[2e/	!	!	!	!	!	!	!
2c\	.	.	.	.	2c\	.	.	.	2e\)	.	.	.	1e	.	.	.	.	.	.	.
!	!	!	!	!	!LO:LB:g=original	!	!	!	!	!	!	!	!	!	!	!	!	!	!	!
=171	=171	=171	=171	=171	=171	=171	=171	=171	=171	=171	=171	=171	=171-	=171	=171	=171	=171	=171	=171	=171
!	!	!	!	!	!LO:SIC:s=(2A\	!	!	!	!	!	!	!	!LO:MO:null:mod=2e/])	!	!	!	!LO:SIC:s=1ff	!	!	!
2A\	.	.	.	.	2A\	-te	-te	.	(2c\	-te	-te	.	.	.	.	.	1ffn\	-mit-	-mit-	.
!LO:SIC:s=2B\	!	!	!	!	!LO:SIC:s=2B\)	!	!	!	!	!	!	!	!LO:SIC:s=([2d/	!	!	!	!	!	!	!
2Bn\	.	.	.	.	2Bn\	.	.	.	2d\)	.	.	.	[2d/	-te	-te	.	.	.	.	.
*	*	*	*	*	*	*	*	*	*	*	*	*	*	*	*	*	*custos:ee	*	*	*
!	!	!	!	!	!	!	!	!	!	!	!	!	!	!	!	!	!LO:LB:g=original	!	!	!
=172	=172	=172	=172	=172	=172	=172	=172	=172	=172	=172	=172	=172	=172	=172	=172	=172	=172	=172	=172	=172
(2G\	.	.	.	.	(2G\	no-	no-	.	2B\	no-	no-	.	2d/]	.	.	.	1ee\,<	-te	-te	.
!	!	!	!	!	!	!	!	!	!	!	!	!	!LO:SIC:s=2c/)	!	!	!	!	!	!	!
2A\)	.	.	.	.	2A\)	.	.	.	1c\	-xam	-xam	.	2c/	.	.	.	.	.	.	.
*custos:F	*	*	*	*	*	*	*	*	*	*	*	*	*	*	*	*	*	*	*	*
=173	=173	=173	=173	=173	=173	=173	=173	=173	=173-	=173	=173	=173	=173	=173	=173	=173	=173	=173	=173	=173
!	!	!	!	!	!	!	!	!	!	!	!	!	!LO:SIC:s=(2a\	!	!	!	!	!	!	!
(2F\	.	.	.	.	(2F\	-xam	-xam	.	.	.	.	.	2a\	no-	no-	.	1dd\	no-	no-	.
!	!	!	!	!	!	!	!	!	!LO:SIC:s=1B	!	!	!	!LO:MO:mod=[2g/	!	!	!	!	!	!	!
2G\)	.	.	.	.	2G\)	.	.	.	1Bn	.	.	.	1g	.	.	.	.	.	.	.
=174	=174	=174	=174	=174	=174	=174	=174	=174	=174-	=174	=174	=174	=174-	=174	=174	=174	=174	=174	=174	=174
!	!	!	!	!	!	!	!	!	!	!	!	!	!LO:MO:null:mod=2g/])	!	!	!	!	!	!	!
(2E\	.	.	.	.	(2E\	Ser-	ser-	.	.	.	.	.	.	.	.	.	2cc\,<	-xam	-xam	.
!	!	!	!	!	!LO:SIC:s=2F\	!	!	!	!	!	!	!	!LO:SIC:s=2f\	!	!	!	!	!	!	!
2F\)	.	.	.	.	2F\)	.	.	.	[<2A/	Ser-	ser-	.	2fn\	-xam	-xam	.	1cc	Ser-	ser-	.
=175	=175	=175	=175	=175	=175	=175	=175	=175	=175	=175	=175	=175	=175	=175	=175	=175	=175-	=175	=175	=175
!	!	!	!	!	!LO:SIC:s=2.D/)	!	!	!	!	!	!	!	!	!	!	!	!	!	!	!
2.D/	.	.	.	.	2.D/	.	.	.	2A/]	.	.	.	2.f\	Ser-	ser-	.	.	.	.	.
!	!	!	!	!	!	!	!	!	!LO:SIC:s=2B\	!	!	!	!	!	!	!	!	!	!	!
.	.	.	.	.	.	.	.	.	2Bn\	-vu-	-vu-	.	.	.	.	.	2b\	-vu-	-vu-	.
4D/	.	.	.	.	4D/	-vu-	-vu-	.	.	.	.	.	4f\	-vu-	-vu-	.	.	.	.	.
=176	=176	=176	=176	=176	=176	=176	=176	=176	=176	=176	=176	=176	=176	=176	=176	=176	=176	=176	=176	=176
2C/,<	.	.	.	.	2C/,<	-lis	-lis,	.	2G/,<	-lis	-lis,	.	2e\,<	-lis	-lis,	.	2cc\,<	-lis	-lis,	.
2E\	.	.	.	.	2E\	di-	Di-	.	2G/	di-	Di-	.	2g\	di-	Di-	.	2cc\	di-	Di-	.
=177	=177	=177	=177	=177	=177	=177	=177	=177	=177	=177	=177	=177	=177	=177	=177	=177	=177	=177	=177	=177
4F\	.	.	.	.	4F\	-mit-	-mit-	.	4A/	-mit-	-mit-	.	4f\	-mit-	-mit-	.	4cc\	-mit-	-mit-	.
4F\,<	.	.	.	.	4F\,<	-te	-te	.	4A/,<	-te	-te	.	4f\,<	-te	-te	.	4cc\,<	-te	-te	.
4C/	.	.	.	.	4C/	no-	no-	.	4G/	no-	no-	.	4e\	no-	no-	.	4cc\	no-	no-	.
4C/	.	.	.	.	4C/	-xam	-xam	.	4G/	-xam	-xam	.	4e\	-xa(m)	-xa(m)	.	4cc\	-xam	-xam	.
=178	=178	=178	=178	=178	=178	=178	=178	=178	=178	=178	=178	=178	=178	=178	=178	=178	=178	=178	=178	=178
1.F\	.	.	.	.	[<1F\	Ser-	ser-	.	1.A	Ser-	ser-	.	1.f\	Ser-	ser-	.	[<1cc\	Ser-	ser-	.
=179	=179	=179	=179	=179	=179	=179	=179	=179	=179-	=179	=179	=179	=179-	=179	=179	=179	=179	=179	=179	=179
!	!	!	!	!	!LO:MO:mod=!null:null	!	!	!	!LO:MO:mod=!null:null	!	!	!	!LO:MO:mod=!null:null	!	!	!	!LO:MO:mod=!null:null	!	!	!
!	!	!	!	!	!LO:N:xstem:cue:vis=4	!	!	!	!LO:N:xstem:cue:vis=4	!	!	!	!LO:N:xstem:cue:vis=4	!	!	!	!LO:N:xstem:cue:vis=4	!	!	!
.	.	.	.	.	2F\]	.	.	.	.	.	.	.	.	.	.	.	2cc\]	.	.	.
2F\	.	.	.	.	2F\	-vu-	-vu-	.	2A/	-vu-	-vu-	.	2f\	-vu-	-vu-	.	2cc\	-vu-	-vu-	.
=180	=180	=180	=180	=180	=180	=180	=180	=180	=180	=180	=180	=180	=180	=180	=180	=180	=180	=180	=180	=180
!	!	!	!	!	!	!	!	!	!LO:SIC:s=0.G/;	!	!	!	!	!	!	!	!	!	!	!
0.C/;	.	.	.	.	0.C/;	-lis.	-lis.	.	0.G/	-lis.	-lis.	.	0.e\;	-lis.	-lis.	.	0.cc\;	-lis.	-lis.	.
==	==	==	==	==	==	==	==	==	==	==	==	==	==	==	==	==	==	==	==	==
*-	*-	*-	*-	*-	*-	*-	*-	*-	*-	*-	*-	*-	*-	*-	*-	*-	*-	*-	*-	*-
!!!system-decoration: [g1]g2
!!!RDF**kern: < = below
!!LO:MO:ori
!!!RDF**dynam: f = "For."
!!!RDF**kern: i = editorial accidental
!!LO:MO:end
!!!filter-modern: sic -sq | autostem -r | tie -s | humtr -p | shed -k -e "s/[<>]//g" | shed -e "s/^custos:/Xcustos:/I" | shed -e "s/N:vis=/N:VIS=/L" | shed -e "s/-//B" | shed -k -e "s/r[a-gA-G]+/r/D" | shed -e "s/t=P:/T=P:/L" | modori -m
!!!ENC: Katarzyna Serwa
!!!END: 2022-07-12
!!!ENC: Marta Lawrence
!!!END: 2021-02-21
!!!ENC: Andrzej Kubiczek
!!!END: 2021-02-06
